!!!!SEGMENT: pl-wtm--r-1024-1_kurpinski-karol-kazimierz--polonez.krn
!!!cenid: 18xx:2298
!!!COM: Kurpiński, Karol Kazimierz
!!!COM-rismid: pe30018952
!!!CDT: 1785/03/06-1857/09/18
!!!CNT: Polish
!!!OTL: Polonez
!!!PDT: 1818
!!!AGN: Secular; Polonaise
!!!SMS-siglum: PL-Wtm
!!!SMS-shelfmark: R 1024/1
!!!SMS-shelfwork: W
!!!SMS-variant:
!!!SMS-altvar:
!!!NIFC-rismid: 1001087647
!!!URL-scan: http://repozytorium.nifc.pl/skany/pl-wtm-nut--r1024
!!!ONB-nifc: UWAGA: pierwszy Polonez od skanu 0009
!!!key:
**kern	**dynam	**kern	**dynam	**kern	**dynam	**kern	**dynam	**kern	**dynam	**kern	**dynam	**kern	**dynam	**kern	**dynam	**kern	**dynam	**kern	**dynam	**kern	**dynam
*part11	*part11	*part10	*part10	*part9	*part9	*part8	*part8	*part7	*part7	*part6	*part6	*part5	*part5	*part4	*part4	*part3	*part3	*part2	*part2	*part1	*part1
*staff11	*	*staff10	*	*staff9	*	*staff8	*	*staff7	*	*staff6	*	*staff5	*	*staff4	*	*staff3	*	*staff2	*	*staff1	*
*Iempty	*	*Itimpa	*	*Itromp	*	*Ifagot	*	*Icor	*	*Iclars	*	*Ioboe	*	*Iflt	*	*Iviola	*	*Ivioln	*	*Ivioln	*
*I"Baſsi	*	*I"Tympani d. a.	*	*I"Trombe in D	*	*I"Fagotti	*	*I"Corni in D	*	*I"Clarinetti in a	*	*I"Oboi	*	*I"Flauti	*	*I"Viole	*	*I"V: II	*	*I"V: I	*
*clefF4	*	*clefF4	*	*clefG2	*	*clefF4	*	*clefG2	*	*clefG2	*	*clefG2	*	*clefG2	*	*clefC3	*	*clefG2	*	*clefG2	*
*ITrd0c0	*	*	*	*ITrd-1c-2	*	*	*	*ITrd6c10	*	*ITrd2c3	*	*	*	*	*	*	*	*	*	*	*
*k[f#c#]	*	*k[f#c#]	*	*k[f#c#]	*	*k[f#c#]	*	*k[f#c#]	*	*k[f#c#]	*	*k[f#c#]	*	*k[f#c#]	*	*k[f#c#]	*	*k[f#c#]	*	*k[f#c#]	*
*G:	*	*G:	*	*G:	*	*G:	*	*G:	*	*G:	*	*G:	*	*G:	*	*G:	*	*G:	*	*G:	*
*M3/4	*	*M3/4	*	*M3/4	*	*M3/4	*	*M3/4	*	*M3/4	*	*M3/4	*	*M3/4	*	*M3/4	*	*M3/4	*	*M3/4	*
*>[A,B,B,C,C,B,B,C,C,D,E,E,F,F,E,E,F,F,A,B,B,C,C,B,B,C,C]	*	*>[A,B,B,C,C,B,B,C,C,D,E,E,F,F,E,E,F,F,A,B,B,C,C,B,B,C,C]	*	*>[A,B,B,C,C,B,B,C,C,D,E,E,F,F,E,E,F,F,A,B,B,C,C,B,B,C,C]	*	*>[A,B,B,C,C,B,B,C,C,D,E,E,F,F,E,E,F,F,A,B,B,C,C,B,B,C,C]	*	*>[A,B,B,C,C,B,B,C,C,D,E,E,F,F,E,E,F,F,A,B,B,C,C,B,B,C,C]	*	*>[A,B,B,C,C,B,B,C,C,D,E,E,F,F,E,E,F,F,A,B,B,C,C,B,B,C,C]	*	*>[A,B,B,C,C,B,B,C,C,D,E,E,F,F,E,E,F,F,A,B,B,C,C,B,B,C,C]	*	*>[A,B,B,C,C,B,B,C,C,D,E,E,F,F,E,E,F,F,A,B,B,C,C,B,B,C,C]	*	*>[A,B,B,C,C,B,B,C,C,D,E,E,F,F,E,E,F,F,A,B,B,C,C,B,B,C,C]	*	*>[A,B,B,C,C,B,B,C,C,D,E,E,F,F,E,E,F,F,A,B,B,C,C,B,B,C,C]	*	*>[A,B,B,C,C,B,B,C,C,D,E,E,F,F,E,E,F,F,A,B,B,C,C,B,B,C,C]	*
=1	=1	=1	=1	=1	=1	=1	=1	=1	=1	=1	=1	=1	=1	=1	=1	=1	=1	=1	=1	=1	=1
*>A	*	*>A	*	*>A	*	*>A	*	*>A	*	*>A	*	*>A	*	*>A	*	*>A	*	*>A	*	*>A	*
*	*	*	*	*	*	*	*	*2\right	*	*2\right	*	*2\right	*	*2\right	*	*	*	*	*	*	*
!	!	!	!	!	!	!	!	!	!	!	!	!	!	!	!	!LO:TX:a:i:t=Col b&colon;	!	!LO:TX:a:i:t=uniſ	!	!LO:TX:a:i:t=Taniec Polski, ułożony na dzień Balu [?]yskiego dla Nayjasnieyszey Matki Imperatora \nCałey Roſsyi a Krola Polskiego, przez Karola Kurpinskiego, w Roku 1818. \nw miesiącu [faded ink}	!
32qqAA/LLL	.	.	.	.	.	.	.	.	.	.	.	.	.	.	.	32qqA/LLLyy	.	32qqA/LLLyy	.	32qqA/LLL	.
32qqBB/	.	.	.	.	.	.	.	.	.	.	.	.	.	.	.	32qqB/yy	.	32qqB/yy	.	32qqB/	.
32qqC#/JJJ	.	.	.	.	.	.	.	.	.	.	.	.	.	.	.	32qqc#/JJJyy	.	32qqc#/JJJyy	.	32qqc#/JJJ	.
!	!LO:DY:b:rj	!	!LO:DY:b:rj	!	!LO:DY:b:rj	!	!LO:DY:b:rj	!	!LO:DY:b:rj	!	!LO:DY:b:rj	!	!LO:DY:b:rj	!	!LO:DY:b:rj	!	!LO:DY:b:rj	!	!	!	!
4D\	f	4D\	f	4dd 4d/	f	4d 4D\	f	2d 2D/	f	2ff# 2a\	f	2ff# 2dd\	f	2ddd\	f	4d\yy	f	4d/yy	.	4d/	.
.	.	.	.	.	.	.	.	.	.	.	.	.	.	.	.	.	.	.	.	.	.
8.r	.	8.r	.	8.r	.	8.r	.	.	.	.	.	.	.	.	.	8.ryy	.	8.ryy	.	8.r	.
*Xtuplet	*	*	*	*	*	*	*	*	*	*	*	*	*	*	*	*Xtuplet	*	*Xtuplet	*	*Xtuplet	*
!LO:TUP:b:problem:klamra łukowa	!	!	!	!	!	!	!	!	!	!	!	!	!	!	!	!LO:TUP:b:problem:klamra łukowa	!	!LO:TUP:b:problem:klamra łukowa	!	!LO:TUP:b:problem:klamra łukowa	!
48AA/LLL	.	16AA/KL	.	16A/KL	.	16AA/KL	.	.	.	.	.	.	.	.	.	48A/LLLyy	.	48A/LLLyy	.	48A/LLL	.
48BB/	.	.	.	.	.	.	.	.	.	.	.	.	.	.	.	48B/yy	.	48B/yy	.	48B/	.
48C#/JJJ	.	.	.	.	.	.	.	.	.	.	.	.	.	.	.	48c#/JJJyy	.	48c#/JJJyy	.	48c#/JJJ	.
8.D/L	.	8.D/	.	8.d/	.	8.D/	.	4r	.	4r	.	4r	.	4r	.	8.d/Lyy	.	8.d/Lyy	.	8.d/L	.
16AA/Jk	.	16AA/Jk	.	16A/Jk	.	16AA/Jk	.	.	.	.	.	.	.	.	.	16A/Jkyy	.	16A/Jkyy	.	16A/Jk	.
=2	=2	=2	=2	=2	=2	=2	=2	=2	=2	=2	=2	=2	=2	=2	=2	=2	=2	=2	=2	=2	=2
*	*	*	*	*^	*	*	*	*	*	*	*	*	*	*	*	*	*	*	*	*	*
!	!	!	!	!	!	!	!LO:TX:a:i:t=Col b&colon;	!	!	!	!	!	!	!	!	!	!	!	!	!	!	!
8D\L	.	4D\	.	4d/	4d\	.	8D\Lyy	.	2.r	.	2.r	.	2.r	.	2.r	.	8d\Lyy	.	8d/Lyy	.	8d/L	.
(>32AA\LL	.	.	.	.	.	.	(y>32AA\LLyy	.	.	.	.	.	.	.	.	.	(y>32A\LLyy	.	(y<32A/LLyy	.	(<32A/LL	.
32BB\	.	.	.	.	.	.	32BB\yy	.	.	.	.	.	.	.	.	.	32B\yy	.	32B/yy	.	32B/	.
32C#\	.	.	.	.	.	.	32C#\yy	.	.	.	.	.	.	.	.	.	32c#\yy	.	32c#/yy	.	32c#/	.
64D\L	.	.	.	.	.	.	64D\Lyy	.	.	.	.	.	.	.	.	.	64d\Lyy	.	64d/Lyy	.	64d/L	.
64E\JJJJ	.	.	.	.	.	.	64E\JJJJyy	.	.	.	.	.	.	.	.	.	64e\JJJJyy	.	64e/JJJJyy	.	64e/JJJJ	.
8F#\L)	.	4r	.	4f#/	4f#\	.	8F#\L)yy	.	.	.	.	.	.	.	.	.	8f#\L)yy	.	8f#/L)yy	.	8f#/L)	.
(>32D\LL	.	.	.	.	.	.	(y>32D\LLyy	.	.	.	.	.	.	.	.	.	(y>32d\LLyy	.	(y<32d/LLyy	.	(<32d/LL	.
32E\	.	.	.	.	.	.	32E\yy	.	.	.	.	.	.	.	.	.	32e\yy	.	32e/yy	.	32e/	.
32F#\	.	.	.	.	.	.	32F#\yy	.	.	.	.	.	.	.	.	.	32f#\yy	.	32f#/yy	.	32f#/	.
32G\JJJ	.	.	.	.	.	.	32G\JJJyy	.	.	.	.	.	.	.	.	.	32g\JJJyy	.	32g/JJJ)yy	.	32g/JJJ	.
8A\L)	.	4r	.	4a/	4a\	.	8A\L)yy	.	.	.	.	.	.	.	.	.	8a\L)yy	.	8a/Lyy	.	8a/L)	.
(>32F#\LL	.	.	.	.	.	.	(y>32F#\LLyy	.	.	.	.	.	.	.	.	.	(y>32f#\LLyy	.	(y<32f#/LLyy	.	(<32f#/LL	.
32G\	.	.	.	.	.	.	32G\yy	.	.	.	.	.	.	.	.	.	32g\yy	.	32g/yy	.	32g/	.
32A\	.	.	.	.	.	.	32A\yy	.	.	.	.	.	.	.	.	.	32a\yy	.	32a/yy	.	32a/	.
64B\L	.	.	.	.	.	.	64B\Lyy	.	.	.	.	.	.	.	.	.	64b\Lyy	.	64b/Lyy	.	64b/L	.
64c#\JJJJ	.	.	.	.	.	.	64c#\JJJJyy	.	.	.	.	.	.	.	.	.	64cc#\JJJJyy	.	64cc#/JJJJyy	.	64cc#/JJJJ	.
=3	=3	=3	=3	=3	=3	=3	=3	=3	=3	=3	=3	=3	=3	=3	=3	=3	=3	=3	=3	=3	=3	=3
8d\L)	.	2.r	.	4dd/	4dd\	.	8d\L)yy	.	2.r	.	2.r	.	2.r	.	2.r	.	8dd\L)yy	.	8dd\L)yy	.	8dd\L)	.
*	*	*	*	*	*	*	*Xtuplet	*	*	*	*	*	*	*	*	*	*	*	*	*	*	*
24r	.	.	.	.	.	.	24ryy	.	.	.	.	.	.	.	.	.	24ryy	.	24ryy	.	24r	.
!LO:TUP:a:problem:klamra łukowa	!	!	!	!	!	!	!	!	!	!	!	!	!	!	!	!	!LO:N:vis=48	!	!LO:TUP:a:problem:klamra łukowa	!	!LO:TUP:a:problem:klamra łukowa	!
!LO:N:vis=48	!	!	!	!	!	!	!LO:N:vis=48	!	!	!	!	!	!	!	!	!	!	!	!	!	!	!
(>24A\L	.	.	.	.	.	.	(y>24A\Lyy	.	.	.	.	.	.	.	.	.	(y>24a\Lyy	.	(y>24a\Lyy	.	(>24a\L	.
48B\L	.	.	.	.	.	.	48B\Lyy	.	.	.	.	.	.	.	.	.	48b\Lyy	.	48b\Lyy	.	48b\L	.
48c#\JJJ	.	.	.	.	.	.	48c#\JJJyy	.	.	.	.	.	.	.	.	.	48cc#\JJJyy	.	48cc#\JJJ)yy	.	48cc#\JJJ)	.
16d\LL)	.	.	.	4r	2ryy	.	16d\LL)yy	.	.	.	.	.	.	.	.	.	16dd\LL)yy	.	16dd'/LLyy	.	16dd'/LL	.
16c#'\	.	.	.	.	.	.	16c#'\yy	.	.	.	.	.	.	.	.	.	16cc#'\yy	.	16cc#'/yy	.	16cc#'/	.
16B'\	.	.	.	.	.	.	16B'\yy	.	.	.	.	.	.	.	.	.	16b'\yy	.	16b'/yy	.	16b'/	.
16A'\JJ	.	.	.	.	.	.	16A'\JJyy	.	.	.	.	.	.	.	.	.	16a'\JJyy	.	16a'/JJyy	.	16a'/JJ	.
16G\LL	.	.	.	4r	.	.	16G\LLyy	.	.	.	.	.	.	.	.	.	16g\LLyy	.	16g/LLyy	.	16g/LL	.
16F#\	.	.	.	.	.	.	16F#\yy	.	.	.	.	.	.	.	.	.	16f#\yy	.	16f#/yy	.	16f#/	.
16E\	.	.	.	.	.	.	16E\yy	.	.	.	.	.	.	.	.	.	16e\yy	.	16e/yy	.	16e/	.
16F#\JJ	.	.	.	.	.	.	16F#\JJyy	.	.	.	.	.	.	.	.	.	16f#\JJyy	.	16f#/JJyy	.	16f#/JJ	.
*	*	*	*	*v	*v	*	*	*	*	*	*	*	*	*	*	*	*	*	*	*	*	*
=4	=4	=4	=4	=4	=4	=4	=4	=4	=4	=4	=4	=4	=4	=4	=4	=4	=4	=4	=4	=4	=4
*	*	*	*	*	*	*	*	*	*	*^	*	*	*	*	*	*	*	*	*	*	*
16G\LL	.	2.r	.	2.r	.	16G\LLyy	.	2.r	.	2.r	4rgg	.	2.r	.	2.r	.	16g\LLyy	.	16g/LLyy	.	16g/LL	.
16A\	.	.	.	.	.	16A\yy	.	.	.	.	.	.	.	.	.	.	16a\yy	.	16a/yy	.	16a/	.
16B\	.	.	.	.	.	16B\yy	.	.	.	.	.	.	.	.	.	.	16b\yy	.	16b'/yy	.	16b'/	.
16G\JJ	.	.	.	.	.	16G\JJyy	.	.	.	.	.	.	.	.	.	.	16g\JJyy	.	16g'/JJyy	.	16g'/JJ	.
8E'\L	.	.	.	.	.	8E'\Lyy	.	.	.	.	4rgg	.	.	.	.	.	8e'\Lyy	.	8e'/Lyy	.	8e'/L	.
8C#'\J	.	.	.	.	.	8C#'\Jyy	.	.	.	.	.	.	.	.	.	.	8c#'\Jyy	.	8c#'/Jyy	.	8c#'/J	.
4AA/	.	.	.	.	.	4AA/	.	.	.	.	8rgg	.	.	.	.	.	4A/yy	.	4A/yy	.	4A/	.
*	*	*	*	*	*	*	*	*	*	*	*Xtuplet	*	*	*	*	*	*	*	*	*	*	*
.	.	.	.	.	.	.	.	.	.	.	(<40a/LLL	.	.	.	.	.	.	.	.	.	.	.
.	.	.	.	.	.	.	.	.	.	.	40b/	.	.	.	.	.	.	.	.	.	.	.
.	.	.	.	.	.	.	.	.	.	.	40cc#/	.	.	.	.	.	.	.	.	.	.	.
.	.	.	.	.	.	.	.	.	.	.	40dd/	.	.	.	.	.	.	.	.	.	.	.
.	.	.	.	.	.	.	.	.	.	.	40ee/JJJ	.	.	.	.	.	.	.	.	.	.	.
!LO:TX:t=[segno]	!	!LO:TX:t=[segno]	!	!	!	!	!	!	!	!	!	!	!	!	!	!	!LO:TX:t=[segno]	!	!LO:TX:t=[segno]	!	!LO:TX:t=[segno]	!
=5||	=5||	=5||	=5||	=5||	=5||	=5||	=5||	=5||	=5||	=5||	=5||	=5||	=5||	=5||	=5||	=5||	=5||	=5||	=5||	=5||	=5||	=5||
*>B	*	*>B	*	*>B	*	*>B	*	*>B	*	*>B	*	*>B	*	*>B	*	*>B	*	*>B	*	*>B	*	*
*	*	*	*	*	*	*^	*	*	*	*	*	*	*	*	*	*	*	*	*	*	*	*
*	*	*	*	*	*	*	*	*	*	*	*	*	*	*	*	*	*	*2\right	*	*	*	*	*
*	*	*	*	*	*	*2\right	*	*	*	*	*	*	*	*	*	*	*	*tremolo	*	*tremolo	*	*	*
!	!	!	!	!	!	!	!	!	!	!	!	!	!	!	!	!	!	!	!LO:DY:b:rj	!	!LO:DY:b:rj	!	!LO:DY:b:rj
!	!LO:DY:b:rj	!	!	!	!	!	!	!	!	!LO:DY:b:rj	!	!	!	!	!	!	!LO:DY:b:rj	!	!	!	!	!	!
4D\	p	2.r	.	2.r	.	2F#/	2D\	.	2f# 2d\	p	2.rb	4ff#/)	.	2.r	.	4.ff# 4.dd\	p	8f#'\L	p	8d/L	p	4.ff#\	p
.	.	.	.	.	.	.	.	.	.	.	.	.	.	.	.	.	.	8A'\	.	8A/	.	.	.
4r	.	.	.	.	.	.	.	.	.	.	.	4rgg	.	.	.	.	.	8f#'\	.	8d/	.	.	.
.	.	.	.	.	.	.	.	.	.	.	.	.	.	.	.	8ff# 8dd\	.	8A'\J	.	8A/J	.	8ff#\	.
4r	.	.	.	.	.	16A/LL	4E\	.	4g 4e\	.	.	4rgg	.	.	.	16aaLL 16ff#\	.	8g\L	.	8e/L	.	(>16aa\LL	.
.	.	.	.	.	.	16G/	.	.	.	.	.	.	.	.	.	16gg 16ee\	.	.	.	.	.	16gg\	.
.	.	.	.	.	.	16F#/	.	.	.	.	.	.	.	.	.	16ff# 16dd\	.	8A\J	.	8A/J	.	16ff#\	.
.	.	.	.	.	.	16G/JJ	.	.	.	.	.	.	.	.	.	16ggJJ 16ee\	.	.	.	.	.	16gg\JJ)	.
=6	=6	=6	=6	=6	=6	=6	=6	=6	=6	=6	=6	=6	=6	=6	=6	=6	=6	=6	=6	=6	=6	=6	=6
*	*	*	*	*	*	*	*	*	*^	*	*	*	*	*^	*	*^	*	*	*	*	*	*	*
4D\	.	2.r	.	2.r	.	8A/L	2F#\	.	2a 2f#\	2ryy	.	4r	2ryy	.	4r	2ryy	.	8aa/L	2ff#\	.	8a\L	.	8f#/L	.	(>8aa\L	.
.	.	.	.	.	.	16B/L	.	.	.	.	.	.	.	.	.	.	.	16bb/L	.	.	8A\	.	8A/	.	16bb\L	.
.	.	.	.	.	.	16c#/JJ	.	.	.	.	.	.	.	.	.	.	.	16ccc#/JJ	.	.	.	.	.	.	16ccc#\JJ	.
4F#\	.	.	.	.	.	4d/	.	.	.	.	.	4r	.	.	4r	.	.	4ddd/	.	.	8a\	.	8f#/	.	4ddd\)	.
.	.	.	.	.	.	.	.	.	.	.	.	.	.	.	.	.	.	.	.	.	8A\J	.	8A/J	.	.	.
*	*	*	*	*	*	*	*	*	*	*	*	*	*	*	*	*	*	*	*	*	*Xtremolo	*	*Xtremolo	*	*	*
4A\	.	.	.	.	.	4rAA	4rA	.	4A/	4A\	.	16r	16ryy	.	16r	16ryy	.	4r	4ryy	.	8g\L	.	8e/L	.	16r	.
!	!	!	!	!	!	!	!	!	!	!	!	!	!	!LO:DY:b:rj	!	!	!LO:DY:b:rj	!	!	!	!	!	!	!	!	!
.	.	.	.	.	.	.	.	.	.	.	.	16a/LL	16a\LL	p	16a/LL	16a\LL	p	.	.	.	.	.	.	.	(>16a\LL	.
.	.	.	.	.	.	.	.	.	.	.	.	16b/	16b\	.	16b/	16b\	.	.	.	.	8A\J	.	8A/J	.	16b\	.
.	.	.	.	.	.	.	.	.	.	.	.	16cc#/JJ	16cc#\JJ	.	16cc#/JJ	16cc#\JJ	.	.	.	.	.	.	.	.	16cc#\JJ)	.
*	*	*	*	*	*	*v	*v	*	*	*	*	*v	*v	*	*	*	*	*v	*v	*	*	*	*	*	*	*
*	*	*	*	*	*	*	*	*v	*v	*	*	*	*	*	*	*	*	*	*	*	*	*	*
!!LO:PB:g=original
=7	=7	=7	=7	=7	=7	=7	=7	=7	=7	=7	=7	=7	=7	=7	=7	=7	=7	=7	=7	=7	=7	=7
!	!	!	!LO:DY:b:rj	!	!	!LO:TX:b:i:t=uniſ	!	!	!	!	!	!	!	!	!	!	!	!	!	!	!	!
4D\	.	8D\L	pp	2.r	.	8D\L	.	8dL 8F#\	.	8dd\L	.	8dd/L	8dd\L	.	2.r	.	8f#\L	.	8f#/L	.	8dd\L	.
.	.	16D\L	.	.	.	16F#\L	.	16dL 16F#\	.	16ddL 16f#\	.	16dd/L	16f#\L	.	.	.	16a\L	.	16f#/L	.	16dd\L	.
.	.	16D\JJ	.	.	.	16A\JJ	.	16dJJ 16F#\	.	16ddJJ 16f#\	.	16dd/JJ	16f#\JJ	.	.	.	16a\JJ	.	16f#/JJ	.	16dd\JJ	.
!	!	!	!	!	!	!LO:TX:t=P:problem:mixed beam	!	!	!	!	!	!	!	!	!	!	!	!	!	!	!	!
8r	.	8D\L	.	.	.	8d\L	.	8dL 8F#\	.	8ddL 8f#\	.	8dd/L	8f#\L	.	.	.	8dd\L	.	8f#/L	.	8dd\L	.
!LO:TX:t=P:problem:mixed beam	!	!	!	!	!	!	!	!	!	!	!	!	!	!	!	!	!	!	!	!	!	!
8D\L	.	8D\	.	.	.	8D\	.	8d 8F#\	.	8dd 8f#\	.	8dd/	8f#\	.	.	.	8a\	.	8f#/	.	8dd\	.
8A\	.	8AA\	.	.	.	8A\	.	8e 8A\	.	8ee 8a\	.	8ee/	8a\	.	.	.	8cc#\	.	8a/	.	8ee\	.
8AA/J	.	8AA\J	.	.	.	8AA/J	.	8eJ 8A\	.	8eeJ 8a\	.	8ee/J	8a\J	.	.	.	8a\J	.	8a/J	.	8ee\J	.
*	*	*	*	*	*	*	*	*	*	*	*	*v	*v	*	*	*	*	*	*	*	*	*
=8	=8	=8	=8	=8	=8	=8	=8	=8	=8	=8	=8	=8	=8	=8	=8	=8	=8	=8	=8	=8	=8
*	*	*	*	*^	*	*	*	*	*	*	*	*	*	*	*	*	*	*	*	*	*
4D\	.	4D\	.	8r	8ryy	.	4D\	.	4f# 4d\	.	8.ff#L 8.ddT\	.	8.ff#L 8.ddT\	.	2.r	.	8dd\L	.	(>8.ddT\L	.	8.ff#t\L	.
.	.	.	.	16a/LL	16a\LL	<	.	.	.	.	.	.	.	.	.	.	8A\	.	.	.	.	.
.	.	.	.	16a/JJ	16a\JJ	.	.	.	.	.	(>32eeLL 32cc#\	.	32eeLL 32cc#\	.	.	.	.	.	32cc#\LL	.	(>32ee\LL	.
.	.	.	.	.	.	.	.	.	.	.	32ff#JJJ 32dd\)	.	32ff#JJJ 32dd\	.	.	.	.	.	32dd\JJJ)	.	32ff#\JJJ)	.
8C#\L	.	8AA/L	.	8a/L	8a\L	.	8C#\L	.	8gL 8e\	.	8ggL 8ee'\	.	8ggL 8ee'\	.	.	.	8a\	.	8ee'\L	.	8gg'\L	.
*	*	*	*	*	*Xtuplet	*	*	*	*	*	*	*	*	*	*	*	*	*	*	*	*	*
!	!	!	!	!LO:TUP:a:problem:klamra łukowa	!	!	!	!	!	!	!	!	!	!	!	!	!	!	!	!	!	!
8D\J	.	8D/J	.	24a/L	24a\L	.	8D\J	.	8f#J 8d\	.	8ff#J 8dd'\	.	8ff#J 8dd'\	.	.	.	8a\J	.	8dd'\J	.	8ff#'\J	.
.	.	.	.	24a/	24a\	.	.	.	.	.	.	.	.	.	.	.	.	.	.	.	.	.
.	.	.	.	24a/JJ	24a\JJ	.	.	.	.	.	.	.	.	.	.	.	.	.	.	.	.	.
4AA/	.	4AA/	.	8a/L	8a\L	.	4AA/	.	4e 4A\	.	8ee 8cc#\	.	8ee 8cc#\	.	.	.	8a\	.	8cc#\	.	8ee\	.
.	.	.	.	8a/J	8a\J	.	.	.	.	.	8r	.	8r	.	.	.	8r	.	8r	.	8r	.
=9	=9	=9	=9	=9	=9	=9	=9	=9	=9	=9	=9	=9	=9	=9	=9	=9	=9	=9	=9	=9	=9	=9
*	*	*	*	*	*	*	*	*	*	*	*^	*	*^	*	*^	*	*	*	*	*	*	*
*2\right	*	*	*	*	*	*	*	*	*	*	*	*	*	*	*	*	*	*	*	*tremolo	*	*tremolo	*	*	*
*tremolo	*	*	*	*	*	*	*tremolo	*	*	*	*	*	*	*	*	*	*	*	*	*	*	*2\right	*	*	*
!LO:DY:b:rj	!	!	!LO:DY:b:rj	!	!	!LO:DY:b:rj	!	!LO:DY:b:rj	!	!LO:DY:b:rj	!	!	!LO:DY:b:rj	!	!	!LO:DY:b:rj	!	!	!LO:DY:b:rj	!	!LO:DY:b:rj	!	!LO:DY:b:rj	!	!LO:DY:b:rj
8D/L	f	4D\	f	[2.a/	2.a\	f	8D/L	f	2f# 2d\	f	2ff#/	4dd\	f	2ff#/	4dd\	f	2ddd/	2ff#\	ff	16aLL 16f#\	ff	16a\LL	ff	4.ff# 4.a 4.d\	ff
.	.	.	.	.	.	.	.	.	.	.	.	.	.	.	.	.	.	.	.	16a 16f#\	.	16a\	.	.	.
8AA/	.	.	.	.	.	.	8AA/	.	.	.	.	.	.	.	.	.	.	.	.	16a 16f#\	.	16a\	.	.	.
.	.	.	.	.	.	.	.	.	.	.	.	.	.	.	.	.	.	.	.	16a 16f#\	.	16a\	.	.	.
8D/	.	4r	.	.	.	.	8D/	.	.	.	.	4a\	.	.	4a\	.	.	.	.	16a 16f#\	.	16a\	.	.	.
.	.	.	.	.	.	.	.	.	.	.	.	.	.	.	.	.	.	.	.	16a 16f#\	.	16a\	.	.	.
8AA/J	.	.	.	.	.	.	8AA/J	.	.	.	.	.	.	.	.	.	.	.	.	16a 16f#\	.	16a\	.	8ff#\	.
.	.	.	.	.	.	.	.	.	.	.	.	.	.	.	.	.	.	.	.	16aJJ 16f#\	.	16a\JJ	.	.	.
*	*	*	*	*	*	*	*Xtremolo	*	*	*	*	*	*	*	*	*	*	*	*	*	*	*	*	*	*
8E/L	.	4AA/	.	.	.	.	8E/L	.	4e 4A\	.	8gg/L	8cc#\L	.	4gg/	4cc#\	.	4ccc#/	8gg\L	.	16aLL 16g\	.	16cc#\LL	.	16aa\LL	.
.	.	.	.	.	.	.	.	.	.	.	.	.	.	.	.	.	.	.	.	16a 16g\	.	16cc#\	.	16gg\	.
8AA/J	.	.	.	.	.	.	8AA/J	.	.	.	8ee/J	8ee\J	.	.	.	.	.	8ee\J	.	16a 16g\	.	16cc#\	.	16ff#\	.
.	.	.	.	.	.	.	.	.	.	.	.	.	.	.	.	.	.	.	.	16aJJ 16g\	.	16cc#\JJ	.	16gg\JJ	.
=10	=10	=10	=10	=10	=10	=10	=10	=10	=10	=10	=10	=10	=10	=10	=10	=10	=10	=10	=10	=10	=10	=10	=10	=10	=10
8F#\L	.	4D\	.	4a/]	8a\L	.	4.F#\	.	4.f# 4.d\	.	2.dd/	2.a\	.	2.aa/	2.dd\	.	2.ddd/	2.aa\	.	16aLL 16f#\	.	16dd\LL	.	8aa\L	.
.	.	.	.	.	.	.	.	.	.	.	.	.	.	.	.	.	.	.	.	16a 16f#\	.	16dd\	.	.	.
8F#\	.	.	.	.	16f#\L	.	.	.	.	.	.	.	.	.	.	.	.	.	.	16a 16f#\	.	16dd\	.	(>16bb\L	.
.	.	.	.	.	16f#\JJ	.	.	.	.	.	.	.	.	.	.	.	.	.	.	16a 16f#\	.	16dd\	.	16ccc#\JJ)	.
*	*	*	*	*	*2\right	*	*	*	*	*	*	*	*	*	*	*	*	*	*	*	*	*	*	*	*
*	*	*	*	*	*tremolo	*	*	*	*	*	*	*	*	*	*	*	*	*	*	*	*	*	*	*	*
8F#\	.	4r	.	8f#/L	8f#\L	.	.	.	.	.	.	.	.	.	.	.	.	.	.	16a 16f#\	.	16dd\	.	16ddd'\LL	.
.	.	.	.	.	.	.	.	.	.	.	.	.	.	.	.	.	.	.	.	16a 16f#\	.	16dd\	.	16ccc#'\	.
8F#\	.	.	.	8f#/J	8f#\	.	8F#\L	.	8f#L 8d\	.	.	.	.	.	.	.	.	.	.	16a 16f#\	.	16dd\	.	16bb'\	.
.	.	.	.	.	.	.	.	.	.	.	.	.	.	.	.	.	.	.	.	16a 16f#\	.	16dd\	.	16aa'\JJ	.
8F#\	.	4r	.	12dd/L	8f#\	.	8F#\	.	8f# 8d\	.	.	.	.	.	.	.	.	.	.	16a 16f#\	.	16dd\	.	16gg\LL	.
.	.	.	.	.	.	.	.	.	.	.	.	.	.	.	.	.	.	.	.	16a 16f#\	.	16dd\	.	16ff#\	.
.	.	.	.	12dd/	.	.	.	.	.	.	.	.	.	.	.	.	.	.	.	.	.	.	.	.	.
8F#\J	.	.	.	.	8f#\J	.	8F#\J	.	8f#J 8d\	.	.	.	.	.	.	.	.	.	.	16a 16f#\	.	16dd\	.	16ee\	.
.	.	.	.	12dd/J	.	.	.	.	.	.	.	.	.	.	.	.	.	.	.	.	.	.	.	.	.
.	.	.	.	.	.	.	.	.	.	.	.	.	.	.	.	.	.	.	.	16aJJ 16f#\	.	16dd\JJ	.	16dd\JJ	.
*	*	*	*	*	*Xtremolo	*	*	*	*	*	*	*	*	*	*	*	*	*	*	*	*	*	*	*	*
*	*	*	*	*v	*v	*	*	*	*	*	*	*	*	*	*	*	*	*	*	*	*	*	*	*	*
=11	=11	=11	=11	=11	=11	=11	=11	=11	=11	=11	=11	=11	=11	=11	=11	=11	=11	=11	=11	=11	=11	=11	=11	=11
*	*	*	*	*	*	*	*	*^	*	*	*	*	*	*	*	*	*	*	*	*	*	*	*	*
8G\L	.	2.r	.	2.r	.	2.G\	.	4d/	4d\	.	4dd/	2.b\	.	4bb/	4dd\	.	2bb/	2.gg\	.	16g\LL	.	16b\LL	.	(>16cc#\LL	.
.	.	.	.	.	.	.	.	.	.	.	.	.	.	.	.	.	.	.	.	16g\	.	16b\	.	16b\	.
8G\	.	.	.	.	.	.	.	.	.	.	.	.	.	.	.	.	.	.	.	16g\	.	16b\	.	16ccc#\	.
.	.	.	.	.	.	.	.	.	.	.	.	.	.	.	.	.	.	.	.	16g\	.	16b\	.	16bb\JJ	.
8G\	.	.	.	.	.	.	.	4r	4ryy	.	8.dd#X/L	.	.	16aa/LL	8.dd#X\L	.	.	.	.	16g\	.	16b\	.	16aa\LL	.
.	.	.	.	.	.	.	.	.	.	.	.	.	.	16gg/	.	.	.	.	.	16g\	.	16b\	.	16gg\	.
8G\	.	.	.	.	.	.	.	.	.	.	.	.	.	16ff#/	.	.	.	.	.	16g\	.	16b\	.	16ff#\)	.
.	.	.	.	.	.	.	.	.	.	.	16ee/Jk	.	.	16ee/JJ	16ee\Jk	.	.	.	.	16g\	.	16b\	.	(>16ee\JJ	.
8G\	.	.	.	.	.	.	.	4e/	4e\	.	8.b/L	.	.	16dd#X/LL	8.b\L	.	4eee/	.	.	16g\	.	16b\	.	16dd#X\LL	.
.	.	.	.	.	.	.	.	.	.	.	.	.	.	16ee/	.	.	.	.	.	16g\	.	16b\	.	16ee\	.
8G\J	.	.	.	.	.	.	.	.	.	.	.	.	.	16ff#/	.	.	.	.	.	16g\	.	16b\	.	16gg\	.
.	.	.	.	.	.	.	.	.	.	.	16ee/Jk	.	.	16ee/JJ	16ee\Jk	.	.	.	.	16g\JJ	.	16b\JJ	.	16ee\JJ)	.
*Xtremolo	*	*	*	*	*	*	*	*	*	*	*	*	*	*	*	*	*	*	*	*	*	*	*	*	*
=12	=12	=12	=12	=12	=12	=12	=12	=12	=12	=12	=12	=12	=12	=12	=12	=12	=12	=12	=12	=12	=12	=12	=12	=12	=12
!LO:TX:t=P:problem:mixed beam	!	!	!	!	!	!LO:TX:t=P:problem:mixed beam	!	!	!	!	!	!	!	!	!	!	!	!	!	!	!	!	!	!	!
8A\L	.	8r	.	8r	.	8A\L	.	8f#/L	8d\L	.	16ddn/LL	8.a\L	.	16ddn/LL	8.a\L	.	16ddd/LL	16ff#\LL	.	8a\L	.	(<16f#/LL	.	(>16ddn\LL	.
.	.	.	.	.	.	.	.	.	.	.	16cc#/	.	.	16cc#/	.	.	16ccc#/	16ee\	.	.	.	16e/)	.	16cc#\)	.
8AA/J	.	16AA/LL	.	8ee 8a\	.	8AA/J	.	8e/J	8A\J	.	16ff#/	.	.	16ff#/	.	.	16fff#/	16aa\	.	(>16a\L	.	16a'/	.	16ff#'\	.
.	.	16AA/JJ	.	.	.	.	.	.	.	.	16ee/JJ	16cc#\Jk	.	16ee/JJ	16cc#\Jk	.	16eee/JJ	16gg\JJ	.	16cc#\JJ)	.	16g'/JJ	.	16ee'\JJ	.
8r	.	8AA/L	.	4ee 4a\	.	8r	.	4e 4A\	2ryy	.	4ee/	4cc#\	.	4ee/	4cc#\	.	4eee/	4gg\	.	4cc#\	.	(<4g/	.	(>4ee\	.
8AA/	.	8AA/J	.	.	.	8AA/	.	.	.	.	.	.	.	.	.	.	.	.	.	.	.	.	.	.	.
4D\	.	4D\	.	4dd 4f#\	.	4D/	.	8d 8F#\	.	.	8dd/	8dd\	.	8dd/	8dd\	.	8ddd/	8ff#\	.	8dd\	.	8f#/)	.	8dd\)	.
.	.	.	.	.	.	.	.	8r	.	.	8r	8r	.	8r	8r	.	8r	8ryy	.	8r	.	8r	.	8r	.
*	*	*	*	*	*	*	*	*v	*v	*	*	*	*	*v	*v	*	*v	*v	*	*	*	*	*	*	*
*	*	*	*	*	*	*	*	*	*	*v	*v	*	*	*	*	*	*	*	*	*	*	*
=13:|!|:	=13:|!|:	=13:|!|:	=13:|!|:	=13:|!|:	=13:|!|:	=13:|!|:	=13:|!|:	=13:|!|:	=13:|!|:	=13:|!|:	=13:|!|:	=13:|!|:	=13:|!|:	=13:|!|:	=13:|!|:	=13:|!|:	=13:|!|:	=13:|!|:	=13:|!|:	=13:|!|:	=13:|!|:
*>C	*	*>C	*	*>C	*	*>C	*	*>C	*	*>C	*	*>C	*	*>C	*	*>C	*	*>C	*	*>C	*
*	*	*	*	*	*	*^	*	*	*	*	*	*	*	*	*	*	*	*	*	*	*
!	!	!	!	!	!	!	!	!	!	!	!LO:TX:b:i:t=Solo	!	!	!	!	!	!	!	!	!	!	!
4C#\	.	2.r	.	2.r	.	[>2.A/	8C#\	.	2.r	.	4.aa\	.	2.r	.	2.r	.	8r	.	8r	.	8r	.
!	!	!	!	!	!	!	!	!	!	!	!	!	!	!	!	!	!	!LO:DY:b	!	!LO:DY:b	!	!LO:DY:b
.	.	.	.	.	.	.	8r	.	.	.	.	.	.	.	.	.	8e\	p	8g/	p	8a/	p
*	*	*	*	*	*	*	*	*	*	*	*	*	*	*	*	*	*	*	*	*	*tremolo	*
4r	.	.	.	.	.	.	8E\	.	.	.	.	.	.	.	.	.	8e\L	.	8g/L	.	8a/L	.
!	!	!	!	!	!	!	!	!	!	!	!LO:N:acc=-	!	!	!	!	!	!	!	!	!	!	!
.	.	.	.	.	.	.	8r	.	.	.	8ggn\	.	.	.	.	.	8e\	.	8g/	.	8a/	.
4r	.	.	.	.	.	.	8AA\	.	.	.	8ee\L	.	.	.	.	.	8e\	.	8g/	.	8a/	.
.	.	.	.	.	.	.	8r	.	.	.	16ff#\L	.	.	.	.	.	8e\J	.	8g/J	.	8a/J	.
.	.	.	.	.	.	.	.	.	.	.	16gg\JJ	.	.	.	.	.	.	.	.	.	.	.
=14	=14	=14	=14	=14	=14	=14	=14	=14	=14	=14	=14	=14	=14	=14	=14	=14	=14	=14	=14	=14	=14	=14
.	.	.	.	.	.	.	.	.	.	.	8qqgg#/	.	.	.	.	.	.	.	.	.	.	.
4D\	.	2.r	.	2.r	.	2.A/_>	4D\	.	2.r	.	(>8.aa\L	.	2.r	.	2.r	.	8r	.	8r	.	8r	.
.	.	.	.	.	.	.	.	.	.	.	.	.	.	.	.	.	8d\	.	8f#/	.	8a/	.
.	.	.	.	.	.	.	.	.	.	.	16ff#\Jk)	.	.	.	.	.	.	.	.	.	.	.
4r	.	.	.	.	.	.	8r	.	.	.	4.dd\	.	.	.	.	.	8d\L	.	8f#/L	.	8a/L	.
.	.	.	.	.	.	.	8D\L	.	.	.	.	.	.	.	.	.	8d\	.	8f#/	.	8a/	.
4r	.	.	.	.	.	.	8F#\	.	.	.	.	.	.	.	.	.	8d\	.	8f#/	.	8a/	.
.	.	.	.	.	.	.	8D\J	.	.	.	8a\	.	.	.	.	.	8d\J	.	8f#/J	.	8a/J	.
!!LO:PB:g=original
=15	=15	=15	=15	=15	=15	=15	=15	=15	=15	=15	=15	=15	=15	=15	=15	=15	=15	=15	=15	=15	=15	=15
4C#\	.	2.r	.	2.r	.	2.A/]	8C#\	.	2.r	.	[>4aa\	.	2.r	.	2.r	.	8r	.	8r	.	8r	.
.	.	.	.	.	.	.	8r	.	.	.	.	.	.	.	.	.	8e\	.	8g/	.	8a/	.
*	*	*	*	*	*	*	*	*	*	*	*	*	*	*	*	*	*	*	*	*	*rep	*
4r	.	.	.	.	.	.	8E\	.	.	.	16aa\LL]	.	.	.	.	.	8e\L	.	8g/L	.	8a/L	.
.	.	.	.	.	.	.	.	.	.	.	16gg#\	.	.	.	.	.	.	.	.	.	.	.
.	.	.	.	.	.	.	8r	.	.	.	16ggX\	.	.	.	.	.	8e\	.	8g/	.	8a/	.
.	.	.	.	.	.	.	.	.	.	.	16ff#\JJ	.	.	.	.	.	.	.	.	.	.	.
4r	.	.	.	.	.	.	8AA/	.	.	.	16dd#X\LL	.	.	.	.	.	8e\	.	8g/	.	8a/	.
.	.	.	.	.	.	.	.	.	.	.	16ee\	.	.	.	.	.	.	.	.	.	.	.
.	.	.	.	.	.	.	8r	.	.	.	16ff#\	.	.	.	.	.	8e\J	.	8g/J	.	8a/J	.
!	!	!	!	!	!	!	!	!	!	!	!LO:N:acc=-	!	!	!	!	!	!	!	!	!	!	!
.	.	.	.	.	.	.	.	.	.	.	16ggnX\JJ	.	.	.	.	.	.	.	.	.	.	.
*	*	*	*	*	*	*	*	*	*	*	*	*	*	*	*	*	*	*	*	*	*Xrep	*
=16	=16	=16	=16	=16	=16	=16	=16	=16	=16	=16	=16	=16	=16	=16	=16	=16	=16	=16	=16	=16	=16	=16
.	.	.	.	.	.	.	.	.	.	.	(>16qqgg#/	.	.	.	.	.	.	.	.	.	.	.
4D\	.	2.r	.	2.r	.	2.A/	4D\	.	2.r	.	8aa\L)|>	.	2.r	.	2.r	.	8r	.	8r	.	8r	.
.	.	.	.	.	.	.	.	.	.	.	(>16qqee#X/	.	.	.	.	.	.	.	.	.	.	.
.	.	.	.	.	.	.	.	.	.	.	8ff#\J)|>	.	.	.	.	.	8d\	.	8f#/	.	8a/	.
*	*	*	*	*	*	*	*	*	*	*	*	*	*	*	*	*	*	*	*	*	*rep	*
4r	.	.	.	.	.	.	8r	.	.	.	8dd\L|>	.	.	.	.	.	8d\L	.	8f#/L	.	8a/L	.
.	.	.	.	.	.	.	8D\L	.	.	.	(>16cc#\L	.	.	.	.	.	8d\	.	8f#/	.	8a/	.
.	.	.	.	.	.	.	.	.	.	.	16dd\JJ	.	.	.	.	.	.	.	.	.	.	.
4r	.	.	.	.	.	.	8F#\	.	.	.	16ee#y\LL	.	.	.	.	.	8d\	.	8f#/	.	8a/	.
.	.	.	.	.	.	.	.	.	.	.	16dd\	.	.	.	.	.	.	.	.	.	.	.
.	.	.	.	.	.	.	8D\J	.	.	.	16cc#\	.	.	.	.	.	8d\J	.	8f#/J	.	8a/J	.
.	.	.	.	.	.	.	.	.	.	.	16dd\JJ)	.	.	.	.	.	.	.	.	.	.	.
*	*	*	*	*	*	*	*	*	*	*	*	*	*	*	*	*	*	*	*	*	*Xrep	*
*	*	*	*	*	*	*	*	*	*	*	*	*	*	*	*	*	*Xtremolo	*	*Xtremolo	*	*Xtremolo	*
*	*	*	*	*	*	*v	*v	*	*	*	*	*	*	*	*	*	*	*	*	*	*	*
=17	=17	=17	=17	=17	=17	=17	=17	=17	=17	=17	=17	=17	=17	=17	=17	=17	=17	=17	=17	=17	=17
!	!	!	!	!	!	!	!	!	!	!	!	!LO:TX:b:i:t=Solo	!	!LO:TX:b:i:t=Solo	!	!	!	!	!LO:DY:b:rj	!	!LO:DY:b:rj
!	!LO:DY:b:rj	!	!LO:DY:b:rj	!	!LO:DY:b:rj	!	!LO:DY:b:rj	!	!LO:DY:b:rj	!	!LO:DY:b:rj	!	!	!	!	!	!LO:DY:b:rj	!	!	!	!
8dL 8D\	f	8D/L	f	8ddL 8d/	f	8.BL 8.G\	f	8dL 8D/	f	8ggnL 8b\	f	4.gg^<\	.	4.bb^<\	.	8bL 8g\	ff	8ggL 8b 8d\	ff	8bbL 8dd 8d\	ff
16dL 16D\	.	16D/L	.	16ddL 16d/	.	.	.	16dL 16D/	.	16ggL 16b\	.	.	.	.	.	16bL 16g\	.	16ggL 16b\	.	16bbL 16dd\	.
16dJJ 16D\	.	16D/JJ	.	16ddJJ 16d/	.	16BJk 16G\	.	16dJJ 16D/	.	16ggJJ 16b\	.	.	.	.	.	16bJJ 16g\	.	16ggJJ 16b\	.	16bbJJ 16dd\	.
4d 4D\	.	4D/	.	4dd 4d/	.	4B 4G\	.	4d 4D/	.	4gg 4b\	.	.	.	.	.	4b 4g\	.	4gg 4b\	.	4bb 4dd\	.
.	.	.	.	.	.	.	.	.	.	.	.	16gg\LL	.	16bb\LL	.	.	.	.	.	.	.
.	.	.	.	.	.	.	.	.	.	.	.	16aa\JJ	.	16ccc#\JJ	.	.	.	.	.	.	.
4r	.	4r	.	4r	.	4r	.	4r	.	4r	.	16bb\LL	.	16ddd\LL	.	4r	.	4r	.	4r	.
.	.	.	.	.	.	.	.	.	.	.	.	16aa\	.	16ccc#\	.	.	.	.	.	.	.
.	.	.	.	.	.	.	.	.	.	.	.	16bb\	.	16ddd\	.	.	.	.	.	.	.
.	.	.	.	.	.	.	.	.	.	.	.	16gg\JJ	.	16bb\JJ	.	.	.	.	.	.	.
=18	=18	=18	=18	=18	=18	=18	=18	=18	=18	=18	=18	=18	=18	=18	=18	=18	=18	=18	=18	=18	=18
8dL 8D\	.	8D/L	.	8ddL 8d/	.	8.AL 8.F#\	.	8f#L 8d\	.	8ff#L 8a\	.	4.ff#^<\	.	4.aa^<\	.	8aL 8f#\	.	8ff#L 8a 8d\	.	8aaL 8dd 8d\	.
16dL 16D\	.	16D/L	.	16ddL 16d/	.	.	.	16f#L 16d\	.	16ff#L 16a\	.	.	.	.	.	16aL 16f#\	.	16ff#L 16a\	.	16aaL 16dd\	.
16dJJ 16D\	.	16D/JJ	.	16ddJJ 16d/	.	16AJk 16F#\	.	16f#JJ 16d\	.	16ff#JJ 16a\	.	.	.	.	.	16aJJ 16f#\	.	16ff#JJ 16a\	.	16aaJJ 16dd\	.
4d 4D\	.	4D/	.	4dd 4d/	.	4A 4F#\	.	4f# 4d\	.	4ff# 4a\	.	.	.	.	.	4a 4f#\	.	4ff# 4a\	.	4aa 4dd\	.
.	.	.	.	.	.	.	.	.	.	.	.	16ddd\LL	.	16fff#\LL	.	.	.	.	.	.	.
.	.	.	.	.	.	.	.	.	.	.	.	16ccc#\JJ	.	16eee\JJ	.	.	.	.	.	.	.
4r	.	4r	.	4r	.	4r	.	4r	.	4r	.	16bb\LL	.	16ddd\LL	.	4r	.	4r	.	4r	.
.	.	.	.	.	.	.	.	.	.	.	.	16aa\	.	16ccc#\	.	.	.	.	.	.	.
.	.	.	.	.	.	.	.	.	.	.	.	16gg\	.	16bb\	.	.	.	.	.	.	.
.	.	.	.	.	.	.	.	.	.	.	.	16ff#\JJ	.	16aa\JJ	.	.	.	.	.	.	.
=19	=19	=19	=19	=19	=19	=19	=19	=19	=19	=19	=19	=19	=19	=19	=19	=19	=19	=19	=19	=19	=19
*	*	*	*	*^	*	*	*	*	*	*	*	*	*	*	*	*	*	*	*	*	*
!	!	!	!	!	!	!	!	!	!	!	!	!	!LO:TX:b:i:t=due	!	!LO:TX:b:i:t=due	!	!	!	!	!	!	!
8D/	.	2.r	.	8a/	8a\	.	(>4A 4F#\	.	8a 8f#\	.	8aa 8ff#\	.	8aaL 8ff#\	.	8aaL 8ff#\	.	8a\	.	8ff#\	.	8aa\	.
8r	.	.	.	8r	8ryy	.	.	.	8r	.	8r	.	(>16bbL 16gg\	.	(>16bbL 16gg\	.	8r	.	8r	.	8r	.
.	.	.	.	.	.	.	.	.	.	.	.	.	16aaJJ 16ff#\	.	16aaJJ 16ff#\	.	.	.	.	.	.	.
8C#/	.	.	.	8a/	8a\	.	4G 4E\	.	8g 8e\	.	8gg 8ee\	.	8ggL 8ee\)|>	.	8ggL 8ee\)|>	.	8a\	.	8ee\	.	8gg\	.
8r	.	.	.	8r	8ryy	.	.	.	8r	.	8r	.	(>16aaL 16ff#\	.	(>16aaL 16ff#\	.	8r	.	8r	.	8r	.
.	.	.	.	.	.	.	.	.	.	.	.	.	16ggJJ 16ee\	.	16ggJJ 16ee\	.	.	.	.	.	.	.
8D/	.	.	.	8a/	8a\	.	4F# 4D\)	.	8f# 8d\	.	8ff# 8dd\	.	8ff#L 8dd\)|>	.	8ff#L 8dd\)|>	.	8a\	.	8dd\	.	8ff#\	.
8r	.	.	.	8r	8ryy	.	.	.	8r	.	8r	.	(>16ggL 16ee\	.	(>16ggL 16ee\	.	8r	.	8r	.	8r	.
.	.	.	.	.	.	.	.	.	.	.	.	.	16ff#JJ 16dd\	.	16ff#JJ 16dd\	.	.	.	.	.	.	.
=20	=20	=20	=20	=20	=20	=20	=20	=20	=20	=20	=20	=20	=20	=20	=20	=20	=20	=20	=20	=20	=20	=20
*	*	*	*	*	*	*	*	*	*	*	*^	*	*	*	*	*	*	*	*	*	*	*
4AA/	.	4AA/	.	4a/	4a\	.	4E 4C#\	.	4e 4A\	.	16ee/LL	4cc#\	.	4ee 4cc#\)|>	.	4ee 4cc#\)|	.	4a\	.	4cc#\	.	4ee 4a\	.
.	.	.	.	.	.	.	.	.	.	.	16a/	.	.	.	.	.	.	.	.	.	.	.	.
.	.	.	.	.	.	.	.	.	.	.	16g#/	.	.	.	.	.	.	.	.	.	.	.	.
.	.	.	.	.	.	.	.	.	.	.	16a/JJ	.	.	.	.	.	.	.	.	.	.	.	.
4r	.	4r	.	4r	2ryy	.	4r	.	4r	.	16a#X/LL	4r	.	4r	.	4r	.	4r	.	4r	.	4r	.
.	.	.	.	.	.	.	.	.	.	.	16b/	.	.	.	.	.	.	.	.	.	.	.	.
.	.	.	.	.	.	.	.	.	.	.	16b#X/	.	.	.	.	.	.	.	.	.	.	.	.
.	.	.	.	.	.	.	.	.	.	.	16cc#/JJ	.	.	.	.	.	.	.	.	.	.	.	.
4r	.	4r	.	4r	.	.	4r	.	4r	.	16dd\LL	4rc	.	4r	.	4r	.	4r	.	4r	.	4r	.
.	.	.	.	.	.	.	.	.	.	.	16dd#X\	.	.	.	.	.	.	.	.	.	.	.	.
.	.	.	.	.	.	.	.	.	.	.	16ee\	.	.	.	.	.	.	.	.	.	.	.	.
.	.	.	.	.	.	.	.	.	.	.	16ee#X\JJ	.	.	.	.	.	.	.	.	.	.	.	.
*	*	*	*	*v	*v	*	*	*	*	*	*v	*v	*	*	*	*	*	*	*	*	*	*	*
!	!	!	!	!	!	!	!	!	!	!	!	!	!	!	!	!	!	!	!	!LO:TX:a:i:t=d'al Segno	!
!LO:TX:t=[segno]	!	!LO:TX:t=[segno]	!	!LO:TX:t=[segno]	!	!LO:TX:t=[segno]	!	!LO:TX:t=[segno]	!	!LO:TX:t=[segno]	!	!LO:TX:t=[segno]	!	!LO:TX:t=[segno]	!	!LO:TX:t=[segno]	!	!LO:TX:t=[segno]	!	!LO:TX:t=[segno]	!
!!LO:PB:g=original
=21||	=21||	=21||	=21||	=21||	=21||	=21||	=21||	=21||	=21||	=21||	=21||	=21||	=21||	=21||	=21||	=21||	=21||	=21||	=21||	=21||	=21||
*>D	*	*>D	*	*>D	*	*>D	*	*>D	*	*>D	*	*>D	*	*>D	*	*>D	*	*>D	*	*>D	*
*k[f#cn]	*	*k[f#]	*	*k[f#]	*	*k[f#]	*	*	*	*k[f#]	*	*k[f#cn]	*	*k[f#cn]	*	*k[f#cn]	*	*k[f#cn]	*	*k[f#cn]	*
*	*	*	*	*	*	*	*	*	*	*	*	*^	*	*	*	*	*	*	*	*	*
!	!	!	!	!	!	!	!	!	!	!	!	!	!	!	!	!	!	!	!	!	!LO:TX:a:i:t=Trio	!
!	!LO:DY:b:rj	!	!	!	!	!	!LO:DY:b:rj	!	!	!	!	!	!	!LO:DY:b:rj	!	!LO:DY:b:rj	!	!LO:DY:a:rj	!	!LO:DY:a:rj	!	!LO:DY:a:rj
32qqD/LLL	f	.	.	.	.	32qqd\LLL	f	.	.	32qqdd\LLL	.	32qqdd\LLL	32qqdd/LLL	f	32qqddd\LLL	f	(>32qqd\LLL	f	(<32qqd/LLL	f	(<32qqd/LLL	ff
32qqE/	.	.	.	.	.	32qqe\	.	.	.	32qqee\	.	32qqee\	32qqee/	.	32qqeee\	.	32qqe\	.	32qqe/	.	32qqe/	.
32qqF#/JJJ	.	.	.	.	.	32qqf#\JJJ	.	.	.	32qqff#\JJJ	.	32qqff#\JJJ	32qqff#/JJJ	.	32qqfff#\JJJ	.	32qqf#\JJJ	.	32qqf#/JJJ	.	32qqf#/JJJ	.
!	!	!	!	!	!	!	!	!	!	!	!LO:DY:b:rj	!	!	!	!	!	!	!	!	!	!	!
4G^<\	.	2.r	.	2.r	.	4g^<\	.	2.r	.	4ggX^<\	f	4gg^</	4gg\	.	4ggg^<\	.	4g^<\)	.	4g^>/)	.	4g^>/)	.
4D^<\	.	.	.	.	.	4d^<\	.	.	.	4dd^<\	.	4dd^</	4dd\	.	4ddd^<\	.	4d^<\	.	4d^>/	.	4d^>/	.
4BB^<\	.	.	.	.	.	4B^<\	.	.	.	4b^<\	.	4b^</	4b\	.	4bb^<\	.	4B^<\	.	4B^>/	.	4B^>/	.
=22	=22	=22	=22	=22	=22	=22	=22	=22	=22	=22	=22	=22	=22	=22	=22	=22	=22	=22	=22	=22	=22	=22
*	*	*	*	*	*	*	*	*	*	*^	*	*	*	*	*	*	*	*	*	*	*^	*
!	!	!	!	!	!	!	!	!	!	!	!	!	!	!	!	!	!	!	!	!	!	!LO:TX:a:i:t=Solo	!	!
4GG/	.	2.r	.	2.r	.	4G\	.	2.r	.	4g/	4g\	.	4g/	4g\	.	4gg\	.	4G/	.	4G/	.	16G/LL	4G\	.
.	.	.	.	.	.	.	.	.	.	.	.	.	.	.	.	.	.	.	.	.	.	(<16dd/	.	.
.	.	.	.	.	.	.	.	.	.	.	.	.	.	.	.	.	.	.	.	.	.	16cc#X/	.	.
.	.	.	.	.	.	.	.	.	.	.	.	.	.	.	.	.	.	.	.	.	.	16dd/JJ	.	.
4r	.	.	.	.	.	4r	.	.	.	4r	2ryy	.	4r	2ryy	.	4r	.	4r	.	4r	.	16dd#X/LL	4r	.
.	.	.	.	.	.	.	.	.	.	.	.	.	.	.	.	.	.	.	.	.	.	16ee/	.	.
.	.	.	.	.	.	.	.	.	.	.	.	.	.	.	.	.	.	.	.	.	.	16ffn/	.	.
.	.	.	.	.	.	.	.	.	.	.	.	.	.	.	.	.	.	.	.	.	.	16ff#X/JJ	.	.
4r	.	.	.	.	.	4r	.	.	.	4r	.	.	4r	.	.	4r	.	4r	.	4r	.	16gg/LL	4r	.
.	.	.	.	.	.	.	.	.	.	.	.	.	.	.	.	.	.	.	.	.	.	16gg#X/	.	.
.	.	.	.	.	.	.	.	.	.	.	.	.	.	.	.	.	.	.	.	.	.	16aa/	.	.
.	.	.	.	.	.	.	.	.	.	.	.	.	.	.	.	.	.	.	.	.	.	16aa#X/JJ)	.	.
*	*	*	*	*	*	*	*	*	*	*v	*v	*	*	*	*	*	*	*	*	*	*	*	*	*
*	*	*	*	*	*	*	*	*	*	*	*	*v	*v	*	*	*	*	*	*	*	*	*	*
=23!|:	=23!|:	=23!|:	=23!|:	=23!|:	=23!|:	=23!|:	=23!|:	=23!|:	=23!|:	=23!|:	=23!|:	=23!|:	=23!|:	=23!|:	=23!|:	=23!|:	=23!|:	=23!|:	=23!|:	=23!|:	=23!|:	=23!|:
*>E	*	*>E	*	*>E	*	*>E	*	*>E	*	*>E	*	*>E	*	*>E	*	*>E	*	*>E	*	*>E	*>E	*
*	*	*	*	*	*	*	*	*	*	*	*	*	*	*	*	*	*	*^	*	*	*	*
*	*	*	*	*	*	*	*	*	*	*	*	*	*	*	*	*	*	*	*2\right	*	*	*	*
*	*	*	*	*	*	*	*	*	*	*	*	*	*	*	*	*	*	*	*tremolo	*	*	*	*
!	!	!	!	!	!	!	!	!	!	!	!	!	!	!	!	!	!	!LO:TX:a:i:t=ſolo	!	!	!	!LO:TX:t=[segno]	!LO:DY:b:rj
!	!LO:DY:b	!	!	!	!	!	!	!	!	!	!	!	!	!	!	!	!LO:DY:b:rj	!	!	!	!	!	!
4G\	p	2.r	.	2.r	.	2.r	.	2.r	.	2.r	.	2.r	.	2.r	.	16G\LL	p	4.gg\	8g\L	.	4.bb/	8b\L	p
.	.	.	.	.	.	.	.	.	.	.	.	.	.	.	.	16d\	.	.	.	.	.	.	.
.	.	.	.	.	.	.	.	.	.	.	.	.	.	.	.	16B\	.	.	8d\	.	.	8d\	.
.	.	.	.	.	.	.	.	.	.	.	.	.	.	.	.	16d\JJ	.	.	.	.	.	.	.
*	*	*	*	*	*	*	*	*	*	*	*	*	*	*	*	*rep	*	*	*	*	*	*	*
4r	.	.	.	.	.	.	.	.	.	.	.	.	.	.	.	16G\LL	.	.	8g\	.	.	8b\	.
.	.	.	.	.	.	.	.	.	.	.	.	.	.	.	.	16d\	.	.	.	.	.	.	.
.	.	.	.	.	.	.	.	.	.	.	.	.	.	.	.	16B\	.	8gg\L	8d\	.	8bb/L	8d\	.
.	.	.	.	.	.	.	.	.	.	.	.	.	.	.	.	16d\JJ	.	.	.	.	.	.	.
*	*	*	*	*	*	*	*	*	*	*	*	*	*	*	*	*Xrep	*	*	*	*	*	*	*
*	*	*	*	*	*	*	*	*	*	*	*	*	*	*	*	*rep	*	*	*	*	*	*	*
4r	.	.	.	.	.	.	.	.	.	.	.	.	.	.	.	16G\LL	.	8gg\	8g\	.	8bb/	8b\	.
.	.	.	.	.	.	.	.	.	.	.	.	.	.	.	.	16d\	.	.	.	.	.	.	.
.	.	.	.	.	.	.	.	.	.	.	.	.	.	.	.	16B\	.	8gg\J	8d\J	.	8bb/J	8d\J	.
.	.	.	.	.	.	.	.	.	.	.	.	.	.	.	.	16d\JJ	.	.	.	.	.	.	.
*	*	*	*	*	*	*	*	*	*	*	*	*	*	*	*	*Xrep	*	*	*	*	*	*	*
=24	=24	=24	=24	=24	=24	=24	=24	=24	=24	=24	=24	=24	=24	=24	=24	=24	=24	=24	=24	=24	=24	=24	=24
*	*	*	*	*	*	*	*	*	*	*	*	*	*	*	*	*rep	*	*	*	*	*	*	*
.	.	.	.	.	.	.	.	.	.	.	.	.	.	.	.	.	.	16qqaa/	.	.	16qqccc/	.	.
*	*	*	*	*	*	*	*	*	*	*	*	*	*	*	*	*	*	*	*	*	*	*rep	*
4G\	.	2.r	.	2.r	.	2.r	.	2.r	.	2.r	.	2.r	.	2.r	.	16G\LL	.	16.gg|>\LL	8g\L	.	16.bb/|>LL	8b\L	.
.	.	.	.	.	.	.	.	.	.	.	.	.	.	.	.	16d\	.	.	.	.	.	.	.
.	.	.	.	.	.	.	.	.	.	.	.	.	.	.	.	.	.	32ff#|>\K	.	.	32aa/K|>	.	.
.	.	.	.	.	.	.	.	.	.	.	.	.	.	.	.	16B\	.	16.gg|>\	8d\	.	16.bb/|>	8d\	.
.	.	.	.	.	.	.	.	.	.	.	.	.	.	.	.	16d\JJ	.	.	.	.	.	.	.
.	.	.	.	.	.	.	.	.	.	.	.	.	.	.	.	.	.	32aa|>\JJk	.	.	32aa/JJk|>	.	.
4r	.	.	.	.	.	.	.	.	.	.	.	.	.	.	.	16G\LL	.	(>4.bb\	8g\	.	(>4.ddd/	8b\	.
.	.	.	.	.	.	.	.	.	.	.	.	.	.	.	.	16d\	.	.	.	.	.	.	.
.	.	.	.	.	.	.	.	.	.	.	.	.	.	.	.	16B\	.	.	8d\	.	.	8d\	.
.	.	.	.	.	.	.	.	.	.	.	.	.	.	.	.	16d\JJ	.	.	.	.	.	.	.
4r	.	.	.	.	.	.	.	.	.	.	.	.	.	.	.	16G\LL	.	.	8g\	.	.	8b\	.
.	.	.	.	.	.	.	.	.	.	.	.	.	.	.	.	16d\	.	.	.	.	.	.	.
.	.	.	.	.	.	.	.	.	.	.	.	.	.	.	.	16B\	.	8aa#X\)	8d\J	.	8ccc#X/)	8d\J	.
.	.	.	.	.	.	.	.	.	.	.	.	.	.	.	.	16d\JJ	.	.	.	.	.	.	.
*	*	*	*	*	*	*	*	*	*	*	*	*	*	*	*	*	*	*	*Xtremolo	*	*	*	*
*	*	*	*	*	*	*	*	*	*	*	*	*	*	*	*	*Xrep	*	*	*	*	*	*Xrep	*
=25	=25	=25	=25	=25	=25	=25	=25	=25	=25	=25	=25	=25	=25	=25	=25	=25	=25	=25	=25	=25	=25	=25	=25
*	*	*	*	*	*	*	*	*^	*	*^	*	*	*	*	*	*	*	*	*	*	*	*	*
4F#\	.	4r	.	4r	.	4r	.	4r	2ryy	.	4r	2ryy	.	4r	.	4r	.	16A\LL	.	8aan\L	8a\L	.	8cccn/L	8cc\L	.
.	.	.	.	.	.	.	.	.	.	.	.	.	.	.	.	.	.	16d\	.	.	.	.	.	.	.
.	.	.	.	.	.	.	.	.	.	.	.	.	.	.	.	.	.	16c\	.	(>16bb\L	8d\	.	(>16ddd/L	8d\	.
.	.	.	.	.	.	.	.	.	.	.	.	.	.	.	.	.	.	16d\JJ	.	16aa\JJ	.	.	16ccc/JJ	.	.
4G\	.	4r	.	4r	.	4r	.	4r	.	.	4r	.	.	4r	.	4r	.	16G\LL	.	8gg\L)	8g\	.	8bb/L)	8b\	.
.	.	.	.	.	.	.	.	.	.	.	.	.	.	.	.	.	.	16d\	.	.	.	.	.	.	.
.	.	.	.	.	.	.	.	.	.	.	.	.	.	.	.	.	.	16B\	.	(>16aa\L	8d\	.	(>16ccc/L	8d\	.
.	.	.	.	.	.	.	.	.	.	.	.	.	.	.	.	.	.	16d\JJ	.	16gg\JJ	.	.	16bb/JJ	.	.
8D\L	.	8r	.	8r	.	8r	.	8r	8ryy	.	8r	8ryy	.	8r	.	8r	.	16F#/LL	.	8ff#\)	8f#\J	.	8aa/)	8a\J	.
.	.	.	.	.	.	.	.	.	.	.	.	.	.	.	.	.	.	16d/	.	.	.	.	.	.	.
!	!LO:DY:b	!	!LO:DY:b	!	!LO:DY:b:rj	!	!LO:DY:b:rj	!	!	!	!	!	!LO:DY:b:rj	!	!LO:DY:b:rj	!	!LO:DY:b:rj	!	!	!LO:TX:b:i:t=uniſ	!	!LO:DY:b:rj	!LO:TX:b:i:t=uniſ	!	!LO:DY:b:rj
8dJ 8D\	f	8D\	f	8dd 8d/	f	8d 8D\	f	8d/	8d\	.	8dd/	8dd\	f	8ddd 8dd\	f	8ddd 8dd\	f	16A/	.	8ddd\ 8dd\	8ryy	ff	8ddd 8dd\	8ryy	ff
.	.	.	.	.	.	.	.	.	.	.	.	.	.	.	.	.	.	16d/JJ	.	.	.	.	.	.	.
*	*	*	*	*	*	*	*	*	*	*	*v	*v	*	*	*	*	*	*	*	*v	*v	*	*	*	*
=26	=26	=26	=26	=26	=26	=26	=26	=26	=26	=26	=26	=26	=26	=26	=26	=26	=26	=26	=26	=26	=26	=26	=26
!	!	!	!	!	!	!	!	!	!	!	!	!	!	!	!	!	!	!LO:DY:b:rj	!	!	!	!	!
8G\L	.	8D\L	.	8ddL 8d/	.	8BL 8G\	.	8d/L	8d\L	.	8ggL 8b\	.	8bbL 8gg\	.	8bbL 8gg\	.	8G\L	f	8ggL 8b'\	.	8bbL 8dd'\	2ryy	.
8G\	.	16D\L	.	16ddL 16d/	.	8B 8G\	.	16d/L	16d\L	.	8gg 8b\	.	8bb 8gg\	.	8bb 8gg\	.	8b 8g\	.	8gg 8b'\	.	(>16bbL 16dd\	.	.
.	.	16D\JJ	.	16ddJJ 16d/	.	.	.	16d/JJ	16d\JJ	.	.	.	.	.	.	.	.	.	.	.	16ccc\JJ)	.	.
8D\	.	8D\L	.	8ddL 8d/	.	8A 8D\	.	8d/L	8d\L	.	8ff# 8a\	.	8aa 8dd\	.	8aa 8ff#\	.	8a 8d\	.	8ff# 8a'\	.	8aaL 8dd'\	.	.
8D\J	.	8D\J	.	8ddJ 8d/	.	8AJ 8D\	.	8d/J	8d\J	.	8ff#J 8a\	.	8aaJ 8dd\	.	8aaJ 8ff#\	.	8aJ 8d\	.	8ff#J 8a'\	.	(>16aaL 16dd\	.	.
.	.	.	.	.	.	.	.	.	.	.	.	.	.	.	.	.	.	.	.	.	16bb\JJ)	.	.
4GG/	.	8D\	.	8dd 8d/	.	8G 8GG/	.	8d/	8d\	.	8gg 8b\	.	8gg 8b\	.	8gg\	.	16gLL 16B\	.	8gg 8b\	.	8gg/ 8b/L	8b\	.
.	.	.	.	.	.	.	.	.	.	.	.	.	.	.	.	.	16d\	.	.	.	.	.	.
.	.	8r	.	8r	.	8r	.	8r	8ryy	.	8r	.	8r	.	8r	.	16B\	.	8r	.	8dd/J	8r	.
.	.	.	.	.	.	.	.	.	.	.	.	.	.	.	.	.	16d\JJ	.	.	.	.	.	.
*	*	*	*	*	*	*	*	*v	*v	*	*	*	*	*	*	*	*	*	*	*	*	*	*
!!LO:PB:g=original
=27	=27	=27	=27	=27	=27	=27	=27	=27	=27	=27	=27	=27	=27	=27	=27	=27	=27	=27	=27	=27	=27	=27
*	*	*	*	*	*	*	*	*	*	*	*	*	*	*	*	*	*	*^	*	*	*	*
*	*	*	*	*	*	*	*	*	*	*	*	*	*	*	*	*	*	*	*tremolo	*	*	*tremolo	*
!	!LO:DY:b:rj	!	!	!	!	!	!	!	!	!	!	!	!	!	!	!	!LO:DY:b:rj	!	!	!	!LO:TX:b:t=P:problem:mixed beam	!	!
4G\	p	2.r	.	2.r	.	2.r	.	2.r	.	2.r	.	2.r	.	2.r	.	16G/LL	p	4.gg\	8g\L	.	4.bb/	8b\L	.
.	.	.	.	.	.	.	.	.	.	.	.	.	.	.	.	16d/	.	.	.	.	.	.	.
.	.	.	.	.	.	.	.	.	.	.	.	.	.	.	.	16B/	.	.	8d\	.	.	8d/	.
.	.	.	.	.	.	.	.	.	.	.	.	.	.	.	.	16d/JJ	.	.	.	.	.	.	.
*	*	*	*	*	*	*	*	*	*	*	*	*	*	*	*	*rep	*	*	*	*	*	*	*
4r	.	.	.	.	.	.	.	.	.	.	.	.	.	.	.	16G/LL	.	.	8g\	.	.	8b\	.
.	.	.	.	.	.	.	.	.	.	.	.	.	.	.	.	16d/	.	.	.	.	.	.	.
.	.	.	.	.	.	.	.	.	.	.	.	.	.	.	.	16B/	.	8gg\L	8d\	.	8bb/L	8d/	.
.	.	.	.	.	.	.	.	.	.	.	.	.	.	.	.	16d/JJ	.	.	.	.	.	.	.
*	*	*	*	*	*	*	*	*	*	*	*	*	*	*	*	*Xrep	*	*	*	*	*	*	*
*	*	*	*	*	*	*	*	*	*	*	*	*	*	*	*	*rep	*	*	*	*	*	*	*
4r	.	.	.	.	.	.	.	.	.	.	.	.	.	.	.	16G/LL	.	8gg\	8g\	.	8bb/	8b\	.
.	.	.	.	.	.	.	.	.	.	.	.	.	.	.	.	16d/	.	.	.	.	.	.	.
.	.	.	.	.	.	.	.	.	.	.	.	.	.	.	.	16B/	.	8gg\J	8d\J	.	8bb/J	8d/J	.
.	.	.	.	.	.	.	.	.	.	.	.	.	.	.	.	16d/JJ	.	.	.	.	.	.	.
*	*	*	*	*	*	*	*	*	*	*	*	*	*	*	*	*Xrep	*	*	*	*	*	*	*
=28	=28	=28	=28	=28	=28	=28	=28	=28	=28	=28	=28	=28	=28	=28	=28	=28	=28	=28	=28	=28	=28	=28	=28
.	.	.	.	.	.	.	.	.	.	.	.	.	.	.	.	.	.	16qqaa/	.	.	16qqccc/	.	.
*	*	*	*	*	*	*	*	*	*	*	*	*	*	*	*	*	*	*	*	*	*	*rep	*
4G\	.	2.r	.	2.r	.	2.r	.	2.r	.	2.r	.	2.r	.	2.r	.	16G/LL	.	16.gg'\LL	8g\L	.	16.bb|>/LL	8b\L	.
.	.	.	.	.	.	.	.	.	.	.	.	.	.	.	.	16d/	.	.	.	.	.	.	.
.	.	.	.	.	.	.	.	.	.	.	.	.	.	.	.	.	.	32ff#'\K	.	.	32aa|>/K	.	.
.	.	.	.	.	.	.	.	.	.	.	.	.	.	.	.	16B/	.	16.gg'\	8d\	.	16.bb|>/	8d/	.
.	.	.	.	.	.	.	.	.	.	.	.	.	.	.	.	16d/JJ	.	.	.	.	.	.	.
.	.	.	.	.	.	.	.	.	.	.	.	.	.	.	.	.	.	32aa'\JJk	.	.	32ccc|>/JJk	.	.
*	*	*	*	*	*	*	*	*	*	*	*	*	*	*	*	*rep	*	*	*	*	*	*	*
4r	.	.	.	.	.	.	.	.	.	.	.	.	.	.	.	16G/LL	.	(>4.bb\	8g\	.	(>4.ddd/	8b\	.
.	.	.	.	.	.	.	.	.	.	.	.	.	.	.	.	16d/	.	.	.	.	.	.	.
.	.	.	.	.	.	.	.	.	.	.	.	.	.	.	.	16B/	.	.	8d\	.	.	8d/	.
.	.	.	.	.	.	.	.	.	.	.	.	.	.	.	.	16d/JJ	.	.	.	.	.	.	.
*	*	*	*	*	*	*	*	*	*	*	*	*	*	*	*	*Xrep	*	*	*	*	*	*	*
*	*	*	*	*	*	*	*	*	*	*	*	*	*	*	*	*rep	*	*	*	*	*	*	*
4r	.	.	.	.	.	.	.	.	.	.	.	.	.	.	.	16G/LL	.	.	8g\	.	.	8b\	.
.	.	.	.	.	.	.	.	.	.	.	.	.	.	.	.	16d/	.	.	.	.	.	.	.
.	.	.	.	.	.	.	.	.	.	.	.	.	.	.	.	16B/	.	8aa#X\)	8d\J	.	8ccc#X/)	8d/J	.
.	.	.	.	.	.	.	.	.	.	.	.	.	.	.	.	16d/JJ	.	.	.	.	.	.	.
*	*	*	*	*	*	*	*	*	*	*	*	*	*	*	*	*Xrep	*	*	*	*	*	*Xrep	*
=29	=29	=29	=29	=29	=29	=29	=29	=29	=29	=29	=29	=29	=29	=29	=29	=29	=29	=29	=29	=29	=29	=29	=29
!	!	!	!	!	!	!	!	!	!	!	!	!	!	!	!	!	!	!	!	!	!LO:TX:b:t=P:problem:mixed beam	!	!
4F#\	.	2.r	.	2.r	.	2.r	.	2.r	.	2.r	.	2.r	.	2.r	.	16A/LL	.	8aan/L	8a\L	.	8cccn/L	8cc\L	.
.	.	.	.	.	.	.	.	.	.	.	.	.	.	.	.	16d/	.	.	.	.	.	.	.
.	.	.	.	.	.	.	.	.	.	.	.	.	.	.	.	16c/	.	16bb/L	8d\	.	16ddd/L	8d/	.
.	.	.	.	.	.	.	.	.	.	.	.	.	.	.	.	16d/JJ	.	16aa/JJ	.	.	16ccc/JJ	.	.
4G\	.	.	.	.	.	.	.	.	.	.	.	.	.	.	.	16G/LL	.	8gg/L	8g\	.	8bb/L	8b\	.
.	.	.	.	.	.	.	.	.	.	.	.	.	.	.	.	16d/	.	.	.	.	.	.	.
.	.	.	.	.	.	.	.	.	.	.	.	.	.	.	.	16B/	.	16aa/L	8d\J	.	16ccc/L	8d/J	.
.	.	.	.	.	.	.	.	.	.	.	.	.	.	.	.	16d/JJ	.	16gg/JJ	.	.	16bb/JJ	.	.
8C\L	.	.	.	.	.	.	.	.	.	.	.	.	.	.	.	16c\LL	.	(>8ee\L	8e\L	.	(>8aa/L	8a\L	.
.	.	.	.	.	.	.	.	.	.	.	.	.	.	.	.	16a\	.	.	.	.	.	.	.
8C\J	.	.	.	.	.	.	.	.	.	.	.	.	.	.	.	16e\	.	8ccc\J)	8cc\J	.	8eee/J)	8ee\J	.
.	.	.	.	.	.	.	.	.	.	.	.	.	.	.	.	16a\JJ	.	.	.	.	.	.	.
=30	=30	=30	=30	=30	=30	=30	=30	=30	=30	=30	=30	=30	=30	=30	=30	=30	=30	=30	=30	=30	=30	=30	=30
4D\	.	2.r	.	2.r	.	2.r	.	2.r	.	2.r	.	2.r	.	2.r	.	8.d\L	.	(>16bb\LL	16b\LL	.	(>16ddd/LL	16dd\LL	.
.	.	.	.	.	.	.	.	.	.	.	.	.	.	.	.	.	.	16gg\)	16g\	.	16bb/)	16b\	.
.	.	.	.	.	.	.	.	.	.	.	.	.	.	.	.	.	.	16aa'\	16a\	.	16ccc'/	16cc\	.
.	.	.	.	.	.	.	.	.	.	.	.	.	.	.	.	16cc\Jk	.	16ff#'\JJ	16f#\JJ	.	16aa'/JJ	16a\JJ	.
8r	.	.	.	.	.	.	.	.	.	.	.	.	.	.	.	(>4cc\	.	(>4ff#\	4f#\	.	(>4aa/	(>4a\	.
8D\	.	.	.	.	.	.	.	.	.	.	.	.	.	.	.	.	.	.	.	.	.	.	.
4G\	.	.	.	.	.	.	.	.	.	.	.	.	.	.	.	8b\)	.	8gg\)	8g\	.	8gg/)	8g\)	.
.	.	.	.	.	.	.	.	.	.	.	.	.	.	.	.	8r	.	8r	8ryy	.	8r	8ryy	.
*	*	*	*	*	*	*	*	*	*	*	*	*	*	*	*	*	*	*v	*v	*	*	*	*
*	*	*	*	*	*	*	*	*	*	*	*	*	*	*	*	*	*	*	*	*v	*v	*
=31:|!|:	=31:|!|:	=31:|!|:	=31:|!|:	=31:|!|:	=31:|!|:	=31:|!|:	=31:|!|:	=31:|!|:	=31:|!|:	=31:|!|:	=31:|!|:	=31:|!|:	=31:|!|:	=31:|!|:	=31:|!|:	=31:|!|:	=31:|!|:	=31:|!|:	=31:|!|:	=31:|!|:	=31:|!|:
*>F	*	*>F	*	*>F	*	*>F	*	*>F	*	*>F	*	*>F	*	*>F	*	*>F	*	*>F	*	*>F	*
*	*	*	*	*	*	*	*	*^	*	*^	*	*	*	*	*	*	*	*	*	*	*
!	!	!	!	!	!	!LO:TX:b:i:t=Solo	!	!	!	!LO:DY:b:rj	!LO:TX:b:i:t=Solo	!	!	!LO:TX:b:i:t=Solo	!	!LO:TX:b:i:t=Solo	!	!	!	!	!	!	!
4D\	.	2.r	.	2.r	.	4A\	.	2.ra	[>2.d/	p	2.rf	[>2.a\	p	4a/	.	4aa\	.	16A/LL	.	8a/L	.	8cc/L	.
.	.	.	.	.	.	.	.	.	.	.	.	.	.	.	.	.	.	16d/	.	.	.	.	.
.	.	.	.	.	.	.	.	.	.	.	.	.	.	.	.	.	.	16c/	.	8d/	.	8d/	.
.	.	.	.	.	.	.	.	.	.	.	.	.	.	.	.	.	.	16d/JJ	.	.	.	.	.
*	*	*	*	*	*	*	*	*	*	*	*	*	*	*	*	*	*	*rep	*	*	*	*	*
4r	.	.	.	.	.	8G#X\L	.	.	.	.	.	.	.	8g#X/L	.	8gg#X\L	.	16A/LL	.	8a/	.	8cc/	.
.	.	.	.	.	.	.	.	.	.	.	.	.	.	.	.	.	.	16d/	.	.	.	.	.
.	.	.	.	.	.	8A\	.	.	.	.	.	.	.	8a/	.	8aa\	.	16c/	.	8d/	.	8d/	.
.	.	.	.	.	.	.	.	.	.	.	.	.	.	.	.	.	.	16d/JJ	.	.	.	.	.
*	*	*	*	*	*	*	*	*	*	*	*	*	*	*	*	*	*	*Xrep	*	*	*	*	*
*	*	*	*	*	*	*	*	*	*	*	*	*	*	*	*	*	*	*rep	*	*	*	*	*
4r	.	.	.	.	.	8c\	.	.	.	.	.	.	.	8cc/	.	8ccc\	.	16A/LL	.	8a/	.	8cc/	.
.	.	.	.	.	.	.	.	.	.	.	.	.	.	.	.	.	.	16d/	.	.	.	.	.
.	.	.	.	.	.	8A\J	.	.	.	.	.	.	.	8a/J	.	8aa\J	.	16c/	.	8d/J	.	8d/J	.
.	.	.	.	.	.	.	.	.	.	.	.	.	.	.	.	.	.	16d/JJ	.	.	.	.	.
*	*	*	*	*	*	*	*	*	*	*	*	*	*	*	*	*	*	*Xrep	*	*	*	*	*
=32	=32	=32	=32	=32	=32	=32	=32	=32	=32	=32	=32	=32	=32	=32	=32	=32	=32	=32	=32	=32	=32	=32	=32
*	*	*	*	*	*	*	*	*	*	*	*	*	*	*	*	*Xtuplet	*	*rep	*	*rep	*	*rep	*
!	!	!	!	!	!	!	!	!	!	!	!	!	!	!LO:TX:a:i:t=in 8va b&colon;	!	!	!	!	!	!	!	!	!
4D\	.	2.r	.	2.r	.	(>12Gn\L	.	2.ra	2.d/_>	.	2.rf	2.a\]	.	4d/yy	.	(>12ggn'>\L	.	16A/LL	.	8a/L	.	8cc/L	.
.	.	.	.	.	.	.	.	.	.	.	.	.	.	.	.	.	.	16d/	.	.	.	.	.
.	.	.	.	.	.	12F#\)	.	.	.	.	.	.	.	.	.	12ff#\)	.	.	.	.	.	.	.
.	.	.	.	.	.	.	.	.	.	.	.	.	.	.	.	.	.	16c/	.	8d/	.	8d/	.
.	.	.	.	.	.	12A'\J	.	.	.	.	.	.	.	.	.	12aa'\J	.	.	.	.	.	.	.
.	.	.	.	.	.	.	.	.	.	.	.	.	.	.	.	.	.	16d/JJ	.	.	.	.	.
4r	.	.	.	.	.	(>4.D\	.	.	.	.	.	.	.	4ryy	.	(>4.dd\	.	16A/LL	.	8a/	.	8cc/	.
.	.	.	.	.	.	.	.	.	.	.	.	.	.	.	.	.	.	16d/	.	.	.	.	.
.	.	.	.	.	.	.	.	.	.	.	.	.	.	.	.	.	.	16c/	.	8d/	.	8d/	.
.	.	.	.	.	.	.	.	.	.	.	.	.	.	.	.	.	.	16d/JJ	.	.	.	.	.
4r	.	.	.	.	.	.	.	.	.	.	.	.	.	4ryy	.	.	.	16A/LL	.	8a/	.	8cc/	.
.	.	.	.	.	.	.	.	.	.	.	.	.	.	.	.	.	.	16d/	.	.	.	.	.
.	.	.	.	.	.	16E\LL	.	.	.	.	.	.	.	.	.	16ee\LL	.	16c/	.	8d/J	.	8d/J	.
.	.	.	.	.	.	16F#\JJ)	.	.	.	.	.	.	.	.	.	16ff#\JJ)	.	16d/JJ	.	.	.	.	.
*	*	*	*	*	*	*	*	*	*	*	*	*	*	*	*	*	*	*Xrep	*	*Xrep	*	*Xrep	*
=33	=33	=33	=33	=33	=33	=33	=33	=33	=33	=33	=33	=33	=33	=33	=33	=33	=33	=33	=33	=33	=33	=33	=33
4G\	.	2.r	.	2.r	.	8G\L	.	2.ra	2.d/]	.	2.b/	2.g\	.	4g/yy	.	8gg\L	.	16G/LL	.	8g/L	.	8b/L	.
.	.	.	.	.	.	.	.	.	.	.	.	.	.	.	.	.	.	16d/	.	.	.	.	.
.	.	.	.	.	.	16qqA/	.	.	.	.	.	.	.	.	.	16qqaa/	.	.	.	.	.	.	.
.	.	.	.	.	.	16G\L	.	.	.	.	.	.	.	.	.	16gg\L	.	16B/	.	8d/	.	8d/	.
.	.	.	.	.	.	16F#\JJ	.	.	.	.	.	.	.	.	.	16ff#\JJ	.	16d/JJ	.	.	.	.	.
*	*	*	*	*	*	*	*	*	*	*	*	*	*	*	*	*	*	*rep	*	*	*	*	*
8r	.	.	.	.	.	16G\LL	.	.	.	.	.	.	.	8ryy	.	16gg\LL	.	16G/LL	.	8g/	.	8b/	.
.	.	.	.	.	.	16A\	.	.	.	.	.	.	.	.	.	16aa\	.	16d/	.	.	.	.	.
8G\L	.	.	.	.	.	16B\	.	.	.	.	.	.	.	8g/Lyy	.	16bb\	.	16B/	.	8d/	.	8d/	.
.	.	.	.	.	.	16c\JJ	.	.	.	.	.	.	.	.	.	16ccc\JJ	.	16d/JJ	.	.	.	.	.
*	*	*	*	*	*	*	*	*	*	*	*	*	*	*	*	*	*	*Xrep	*	*	*	*	*
*	*	*	*	*	*	*	*	*	*	*	*	*	*	*	*	*	*	*rep	*	*	*	*	*
8B\	.	.	.	.	.	16c#X\LL	.	.	.	.	.	.	.	8b/yy	.	16ccc#X\LL	.	16G/LL	.	8g/	.	8b/	.
.	.	.	.	.	.	16d\	.	.	.	.	.	.	.	.	.	16ddd\	.	16d/	.	.	.	.	.
8G\J	.	.	.	.	.	16e\	.	.	.	.	.	.	.	8g/Jyy	.	16eee\	.	16B/	.	8d/J	.	8d/J	.
.	.	.	.	.	.	16d\JJ	.	.	.	.	.	.	.	.	.	16ddd\JJ	.	16d/JJ	.	.	.	.	.
*	*	*	*	*	*	*	*	*	*	*	*	*	*	*	*	*	*	*Xrep	*	*Xtremolo	*	*Xtremolo	*
=34	=34	=34	=34	=34	=34	=34	=34	=34	=34	=34	=34	=34	=34	=34	=34	=34	=34	=34	=34	=34	=34	=34	=34
*	*	*	*	*^	*	*^	*	*	*	*	*	*	*	*^	*	*	*	*	*	*	*	*	*
!	!LO:DY:b	!	!LO:DY:b:rj	!	!	!LO:DY:b:rj	!	!	!LO:DY:b:rj	!	!	!LO:DY:b:rj	!	!	!LO:DY:b:rj	!	!	!LO:DY:b:rj	!	!	!	!LO:DY:b:rj	!	!	!	!
8D\L	.	8D\L	f	8d/L	8d\L	f	8AL 8F#\	2ryy	f	8dL 8D/	2ryy	f	8a/L	8f#\L	f	8a/L	8f#\L	f	8aa\L	.	16D/LL	f	8f#/L	.	8a/L	.
.	f	.	.	.	.	.	.	.	.	.	.	.	.	.	.	.	.	.	.	.	16d/	.	.	.	.	.
!	!	!	!	!	!	!	!	!	!	!	!	!	!	!	!	!	!	!	!	!	!	!	!	!LO:DY:b:rj	!	!LO:DY:b:rj
16dL 16D\	.	16D\L	.	16d/L	16d\L	.	16AL 16F#\	.	.	16dL 16D/	.	.	16a/L	16f#\L	.	16a/L	16f#\L	.	16aa\L	.	16A/	.	16f#/L	f	16aL 16d/	f
16dJJ 16D\	.	16D\JJ	.	16d/JJ	16d\JJ	.	16AJJ 16F#\	.	.	16dJJ 16D/	.	.	16a/JJ	16f#\JJ	.	16a/JJ	16f#\JJ	.	16aa\JJ	.	16d/JJ	.	16f#/JJ	.	16aJJ 16d/	.
8dL 8D\	.	8D\L	.	8d/L	8d\L	.	8AL 8F#\	.	.	8dL 8D/	.	.	8a/L	8f#\L	.	8a/L	8f#\L	.	8aa\L	.	16F#/LL	.	8f#/L	.	8aL 8d/	.
.	.	.	.	.	.	.	.	.	.	.	.	.	.	.	.	.	.	.	.	.	16d/	.	.	.	.	.
8dJ 8D\	.	8D\J	.	8d/J	8d\J	.	8AJ 8F#\	.	.	8d 8D/	.	.	8a/J	8f#\J	.	8a/J	8f#\J	.	8aa\J	.	16A/	.	8f#/J	.	8aJ 8d/	.
.	.	.	.	.	.	.	.	.	.	.	.	.	.	.	.	.	.	.	.	.	16d/JJ	.	.	.	.	.
8d 8D\	.	8D\	.	8d/	8d\	.	8A/L	8F#\	.	8d 8D/	8ryy	.	8a/	8f#\	.	8a/L	8f#\	.	8aa\L	.	16f#\LL	.	8f#/	.	8a 8d/	.
.	.	.	.	.	.	.	.	.	.	.	.	.	.	.	.	.	.	.	.	.	16a\	.	.	.	.	.
8r	.	8r	.	8r	8ryy	.	16D/L	8r	.	8d/J	8r	.	8r	8ryy	.	16d/L	8r	.	16dd\L	.	16f#\	.	8r	.	8r	.
.	.	.	.	.	.	.	16F#/JJ	.	.	.	.	.	.	.	.	16f#/JJ	.	.	16ff#\JJ	.	16d\JJ	.	.	.	.	.
*	*	*	*	*v	*v	*	*	*	*	*	*	*	*	*	*	*v	*v	*	*	*	*	*	*	*	*	*
*	*	*	*	*	*	*v	*v	*	*	*	*	*	*	*	*	*	*	*	*	*	*	*	*	*
!!LO:PB:g=original
=35	=35	=35	=35	=35	=35	=35	=35	=35	=35	=35	=35	=35	=35	=35	=35	=35	=35	=35	=35	=35	=35	=35	=35
*	*	*	*	*	*	*	*	*	*	*	*	*	*	*	*	*	*	*	*	*tremolo	*	*tremolo	*
!	!	!	!	!	!	!LO:TX:b:i:t=Solo	!	!	!	!	!	!	!LO:DY:b:rj	!LO:TX:b:i:t=Solo	!	!LO:TX:b:i:t=Solo	!	!	!	!	!	!	!
4D\	.	2.r	.	2.r	.	4A\	.	2.ra	2.d/	.	2.rf	[>2.a/	p	4a/	.	4aa\	.	16A\LL	.	8a/L	.	8cc/L	.
!	!LO:DY:b	!	!	!	!	!	!	!	!	!	!	!	!	!	!	!	!	!	!	!	!	!	!
.	p	.	.	.	.	.	.	.	.	.	.	.	.	.	.	.	.	16d\	.	.	.	.	.
.	.	.	.	.	.	.	.	.	.	.	.	.	.	.	.	.	.	16c\	.	8d/	.	8d/	.
.	.	.	.	.	.	.	.	.	.	.	.	.	.	.	.	.	.	16d\JJ	.	.	.	.	.
*	*	*	*	*	*	*	*	*	*	*	*	*	*	*	*	*	*	*rep	*	*	*	*	*
4r	.	.	.	.	.	8G#X\L	.	.	.	.	.	.	.	8g#X/L	.	8gg#X\L	.	16A\LL	.	8a/	.	8cc/	.
.	.	.	.	.	.	.	.	.	.	.	.	.	.	.	.	.	.	16d\	.	.	.	.	.
.	.	.	.	.	.	8A\	.	.	.	.	.	.	.	8a/	.	8aa\	.	16c\	.	8d/	.	8d/	.
.	.	.	.	.	.	.	.	.	.	.	.	.	.	.	.	.	.	16d\JJ	.	.	.	.	.
*	*	*	*	*	*	*	*	*	*	*	*	*	*	*	*	*	*	*Xrep	*	*	*	*	*
*	*	*	*	*	*	*	*	*	*	*	*	*	*	*	*	*	*	*rep	*	*	*	*	*
4r	.	.	.	.	.	8c\	.	.	.	.	.	.	.	8cc/	.	8ccc\	.	16A\LL	.	8a/	.	8cc/	.
.	.	.	.	.	.	.	.	.	.	.	.	.	.	.	.	.	.	16d\	.	.	.	.	.
!	!	!	!	!	!	!	!	!	!	!	!	!	!	!LO:N:vis=8.	!	!	!	!	!	!	!	!	!
.	.	.	.	.	.	8A\J	.	.	.	.	.	.	.	8a/J	.	8aa\J	.	16c\	.	8d/J	.	8d/J	.
.	.	.	.	.	.	.	.	.	.	.	.	.	.	.	.	.	.	16d\JJ	.	.	.	.	.
*	*	*	*	*	*	*	*	*	*	*	*	*	*	*	*	*	*	*Xrep	*	*	*	*	*
=36	=36	=36	=36	=36	=36	=36	=36	=36	=36	=36	=36	=36	=36	=36	=36	=36	=36	=36	=36	=36	=36	=36	=36
*	*	*	*	*	*	*	*	*	*	*	*	*	*	*	*	*	*	*rep	*	*rep	*	*rep	*
4D\	.	2.r	.	2.r	.	16Gn\LL	.	2.ra	2.d/	.	2.rf	2.a/]	.	16gn/LL	.	16ggn\LL	.	16A\LL	.	8a/L	.	8cc/L	.
.	.	.	.	.	.	16F#\	.	.	.	.	.	.	.	16f#/	.	16ff#\	.	16d\	.	.	.	.	.
.	.	.	.	.	.	16A\	.	.	.	.	.	.	.	16a/	.	16aa\	.	16c\	.	8d/	.	8d/	.
.	.	.	.	.	.	16F#\JJ	.	.	.	.	.	.	.	16f#/JJ	.	16ff#\JJ	.	16d\JJ	.	.	.	.	.
4r	.	.	.	.	.	4.D\	.	.	.	.	.	.	.	4.d/	.	4.dd\	.	16A\LL	.	8a/	.	8cc/	.
.	.	.	.	.	.	.	.	.	.	.	.	.	.	.	.	.	.	16d\	.	.	.	.	.
.	.	.	.	.	.	.	.	.	.	.	.	.	.	.	.	.	.	16c\	.	8d/	.	8d/	.
.	.	.	.	.	.	.	.	.	.	.	.	.	.	.	.	.	.	16d\JJ	.	.	.	.	.
4r	.	.	.	.	.	.	.	.	.	.	.	.	.	.	.	.	.	16A\LL	.	8a/	.	8cc/	.
.	.	.	.	.	.	.	.	.	.	.	.	.	.	.	.	.	.	16d\	.	.	.	.	.
.	.	.	.	.	.	16E\LL	.	.	.	.	.	.	.	16e/LL	.	16ee\LL	.	16c\	.	8d/J	.	8d/J	.
.	.	.	.	.	.	16F#\JJ	.	.	.	.	.	.	.	16f#/JJ	.	16ff#\JJ	.	16d\JJ	.	.	.	.	.
*	*	*	*	*	*	*	*	*	*	*	*	*	*	*	*	*	*	*Xrep	*	*Xrep	*	*Xrep	*
=37	=37	=37	=37	=37	=37	=37	=37	=37	=37	=37	=37	=37	=37	=37	=37	=37	=37	=37	=37	=37	=37	=37	=37
*	*	*	*	*^	*	*	*	*	*	*	*	*	*	*^	*	*	*	*	*	*	*	*	*
*	*	*2\right	*	*	*	*	*	*	*	*	*	*	*	*	*	*	*	*	*	*	*	*	*	*	*
*	*	*tremolo	*	*	*	*	*	*	*	*	*	*	*	*	*Xtuplet	*Xtuplet	*	*	*	*	*	*	*	*	*
!	!LO:DY:b:rj	!	!LO:HP:b	!	!	!	!LO:TX:b:i:t=Uniſ	!LO:DY:b:rj	!	!	!LO:DY:b:rj	!	!	!LO:DY:b:rj	!	!	!LO:DY:b:rj	!LO:TX:b:i:t=due	!LO:DY:b:rj	!	!LO:DY:b:rj	!LO:TX:a:i:t=Uniſ	!LO:DY:b:rj	!	!
8.G\L	f	16D\LL	<	4d/	4d\	.	8.G\L	f	4d/	4d\	f	8.g/L	8.g\L	f	8.b/L	8.g\L	f	8.gg\L	f	8gL 8G\	f	8bLyy 8g/yy	f	8bL 8g/	.
.	.	16D\	.	.	.	.	.	.	.	.	.	.	.	.	.	.	.	.	.	.	.	.	.	.	.
.	.	16D\	.	.	.	.	.	.	.	.	.	.	.	.	.	.	.	.	.	16r	.	16ryy	.	16r	.
!	!	!	!	!	!	!	!	!	!	!	!	!	!	!	!	!	!	!	!	!	!	!	!	!	!LO:DY:b:rj
48D\LL	.	16D\	.	.	.	.	48D\LL	.	.	.	.	48d/LL	48d\LL	.	48d/LL	48d\LL	.	48dd\LL	.	48d\LL	.	(<48d/LLyy	.	(<48d/LL	f
48E\	.	.	.	.	.	.	48E\	.	.	.	.	48e/	48e\	.	48e/	48e\	.	48ee\	.	48e\	.	48e/yy	.	48e/	.
48F#\JJJ	.	.	.	.	.	.	48F#\JJJ	.	.	.	.	48f#/JJJ	48f#\JJJ	.	48f#/JJJ	48f#\JJJ	.	48ff#\JJJ	.	48f#\JJJ	.	48f#/JJJyy	.	48f#/JJJ	.
16G\LL	.	16D\	.	4r	2ryy	.	16G\LL	.	4r	2ryy	.	16g/LL	16g\LL	.	16g/LL	2ryy	.	16gg\LL	.	16g'\LL	.	16g/LL)yy	.	16g/LL)	.
16F#\	.	16D\	.	.	.	.	16F#\	.	.	.	.	16f#/	16f#\	.	16f#/	.	.	16ff#\	.	16f#'\	.	16f#'/yy	.	16f#'/	.
16G\	.	16D\	.	.	.	.	16G\	.	.	.	.	16g/	16g\	.	16g/	.	.	16gg\	.	16g'\	.	16g'/yy	.	16g'/	.
16A\JJ	.	16D\	.	.	.	.	16A\JJ	.	.	.	.	16a/JJ	16a\JJ	.	16a/JJ	.	.	16aa\JJ	.	16a'\JJ	.	16a'/JJyy	.	16a'/JJ	.
16B\LL	.	16D\	.	4r	.	.	16B\LL	.	4r	.	.	16b/LL	16b\LL	.	16b\LL	.	.	16bb\LL	.	16b\LL	.	16b/LLyy	.	16b/LL	.
16A\	.	16D\	.	.	.	.	16A\	.	.	.	.	16a/	16a\	.	16a\	.	.	16aa\	.	16a\	.	16a/yy	.	16a/	.
16B\	.	16D\	.	.	.	.	16B\	.	.	.	.	16b/	16b\	.	16b\	.	.	16bb\	.	16b\	.	16b/yy	.	16b/	.
16c#X\JJ	.	16D\JJ	[[	.	.	.	16c#X\JJ	.	.	.	.	16cc#/JJ	16cc#\JJ	.	16cc#X\JJ	.	.	16ccc#X\JJ	.	16cc#X\JJ	.	16cc#X/JJyy	.	16cc#X/JJ	.
*	*	*	*	*v	*v	*	*	*	*v	*v	*	*	*	*	*v	*v	*	*	*	*	*	*	*	*	*
=38	=38	=38	=38	=38	=38	=38	=38	=38	=38	=38	=38	=38	=38	=38	=38	=38	=38	=38	=38	=38	=38	=38
*	*	*	*	*	*	*	*	*	*	*	*	*	*	*	*	*	*	*	*	*	*^	*
!	!	!	!LO:DY:b:rj	!	!	!	!	!	!LO:DY:b:rj	!	!	!	!	!	!	!	!	!	!	!	!	!	!
4d\	.	4D\	f	4dd 4d/	.	4d\	.	4d 4D/	f	4dd/	4dd\	.	4dd\	.	4ddd\	.	4dd'>\	.	4dd\	.	16dd/LL	4dd\	.
.	.	.	.	.	.	.	.	.	.	.	.	.	.	.	.	.	.	.	.	.	(<16dd/	.	.
.	.	.	.	.	.	.	.	.	.	.	.	.	.	.	.	.	.	.	.	.	16cc#X/	.	.
.	.	.	.	.	.	.	.	.	.	.	.	.	.	.	.	.	.	.	.	.	16dd/JJ	.	.
4r	.	4r	.	4r	.	4r	.	4r	.	4r	2ryy	.	4r	.	4r	.	4r	.	4r	.	16dd#X/LL	4r	.
.	.	.	.	.	.	.	.	.	.	.	.	.	.	.	.	.	.	.	.	.	16ee/	.	.
.	.	.	.	.	.	.	.	.	.	.	.	.	.	.	.	.	.	.	.	.	16ffn/)	.	.
.	.	.	.	.	.	.	.	.	.	.	.	.	.	.	.	.	.	.	.	.	(<16ff#X/JJ	.	.
4r	.	4r	.	4r	.	4r	.	4r	.	4r	.	.	4r	.	4r	.	4r	.	4r	.	16gg/LL	4r	.
.	.	.	.	.	.	.	.	.	.	.	.	.	.	.	.	.	.	.	.	.	16gg#X/	.	.
.	.	.	.	.	.	.	.	.	.	.	.	.	.	.	.	.	.	.	.	.	16aa/	.	.
!	!	!	!	!	!	!	!	!	!	!	!	!	!	!	!	!	!	!	!	!	!LO:TX:a:t=P:problem:w źródle ta adnotacja zapisana za ostatnim taktem	!	!
!	!	!	!	!	!	!	!	!	!	!	!	!	!	!	!	!	!	!	!	!	!	!LO:TX:a:i:t=d'al Segno Trio	!
!	!	!	!	!	!	!	!	!	!	!	!	!	!	!	!	!	!	!	!	!	!LO:TX:t=[segno]	!	!
.	.	.	.	.	.	.	.	.	.	.	.	.	.	.	.	.	.	.	.	.	16aa#X/JJ)	.	.
*	*	*	*	*	*	*	*	*	*	*v	*v	*	*	*	*	*	*	*	*	*	*v	*v	*
=||	=||	=||	=||	=||	=||	=||	=||	=||	=||	=||	=||	=||	=||	=||	=||	=||	=||	=||	=||	=||	=||
*-	*-	*-	*-	*-	*-	*-	*-	*-	*-	*-	*-	*-	*-	*-	*-	*-	*-	*-	*-	*-	*-
!!!system-decoration: (s1,s2,s3)(s4,s5,s6,s7,s8s9,s10,s11)
!!!RDF**kern: | = vertical stroke
!!!RDF**dynam: < = "cres", 'fontstyle="italics"
!!!RDF**kern: > = above
!!!RDF**kern: < = below
!!!EED: Antoni Szymański
!!!EST: 2021-06-10
!!!AIN: 1 clars 1 cor 1 empty 1 fagot 1 flt 1 oboe 1 timpa 1 tromp 1 viola 2 violn
!!!ENC: Tomasz Grochalski
!!!END: 2021-05-31
